%
(1001)
(Coconut_Neon)
(T1 D=6 CR=0 - ZMIN=-9.5 - flat end mill)
N10 G90 G94
N15 G17
N20 G21

(2D Pocket)
N25 M9
N30 T1 M6
N35 S24000 M3
N40 G54
N45 M9
N55 G0 X265.179 Y398.656
N60 G43 Z15 H1
N65 Z5
N70 G1 Z3.1 F6000
N75 X265.18 Y398.661 Z3.025
N80 X265.185 Y398.674 Z2.951
N85 X265.192 Y398.696 Z2.88
N90 X265.201 Y398.727 Z2.812
N95 X265.213 Y398.775 Z2.735
N100 X265.228 Y398.834 Z2.667
N105 X265.245 Y398.903 Z2.609
N110 X265.264 Y398.979 Z2.562
N115 X265.285 Y399.062 Z2.528
N120 X265.306 Y399.148 Z2.507
N125 X265.328 Y399.237 Z2.5
N130 X265.367 Y399.394
N135 X276.677 Y451.8 Z2.453
N140 X276.705 Y451.921
N145 X276.804 Y452.302 Z2.452
N150 X276.839 Y452.426
N155 X276.879 Y452.548
N160 X277.008 Y452.913
N165 X277.053 Y453.031
N170 X277.102 Y453.147 Z2.451
N175 X277.259 Y453.495
N180 X277.313 Y453.606
N185 X277.37 Y453.716
N190 X277.553 Y454.046
N195 X277.618 Y454.157
N200 X277.687 Y454.264 Z2.45
N205 X277.896 Y454.575
N210 X277.968 Y454.677
N215 X278.043 Y454.776
N220 X278.275 Y455.066
N225 X278.356 Y455.163 Z2.449
N230 X278.441 Y455.256
N235 X278.696 Y455.525
N240 X278.784 Y455.615
N245 X278.877 Y455.701
N250 X279.153 Y455.947 Z2.448
N255 X279.249 Y456.029
N260 X279.349 Y456.107
N265 X279.645 Y456.329
N270 X279.745 Y456.401
N275 X279.847 Y456.468
N280 X280.16 Y456.665 Z2.447
N285 X280.269 Y456.73
N290 X280.381 Y456.791
N295 X280.712 Y456.962
N300 X280.826 Y457.018
N305 X280.943 Y457.07
N310 X281.289 Y457.213 Z2.446
N315 X281.404 Y457.257
N320 X281.52 Y457.297
N325 X281.879 Y457.412
N330 X282.002 Y457.449
N335 X282.127 Y457.48 Z2.445
N340 X282.5 Y457.565
N345 X282.624 Y457.59
N350 X282.748 Y457.611
N355 X283.131 Y457.665
N360 X283.256 Y457.68 Z2.444
N365 X283.382 Y457.689
N370 X283.775 Y457.711
N375 X283.901 Y457.716
N380 X335.118 Y458.437 Z2.399
N385 X335.242 Y458.436
N390 X335.642 Y458.425 Z2.398
N395 X335.773 Y458.418
N400 X335.903 Y458.406
N405 X336.294 Y458.361
N410 X336.417 Y458.345
N415 X336.539 Y458.323
N420 X336.919 Y458.247 Z2.397
N425 X337.048 Y458.218
N430 X337.176 Y458.184
N435 X337.544 Y458.076
N440 X337.667 Y458.036
N445 X337.789 Y457.992 Z2.396
N450 X338.143 Y457.854
N455 X338.255 Y457.808
N460 X338.366 Y457.756
N465 X338.705 Y457.591
N470 X338.824 Y457.53 Z2.395
N475 X338.94 Y457.464
N480 X339.262 Y457.27
N485 X339.366 Y457.204
N490 X339.468 Y457.134
N495 X339.772 Y456.915 Z2.394
N500 X339.876 Y456.836
N505 X339.978 Y456.753
N510 X340.262 Y456.508
N515 X340.354 Y456.424
N520 X340.443 Y456.337
N525 X340.706 Y456.069 Z2.393
N530 X340.795 Y455.975
N535 X340.879 Y455.877
N540 X341.119 Y455.586
N545 X341.201 Y455.482
N550 X341.278 Y455.376
N555 X341.493 Y455.063 Z2.392
N560 X341.56 Y454.961
N565 X341.622 Y454.857
N570 X341.813 Y454.524
N575 X341.877 Y454.406
N580 X341.936 Y454.285 Z2.391
N585 X342.098 Y453.933
N590 X342.148 Y453.819
N595 X342.193 Y453.703
N600 X342.327 Y453.334
N605 X342.368 Y453.212 Z2.39
N610 X342.404 Y453.089
N615 X342.508 Y452.702
N620 X342.539 Y452.578
N625 X354.42 Y399.433 Z2.342
N630 X354.59 Y398.77 Z2.341
N635 X354.783 Y398.169
N640 X355.013 Y397.583 Z2.34
N645 X355.275 Y397.014
N650 X355.571 Y396.466 Z2.339
N655 X355.899 Y395.936
N660 X356.259 Y395.427 Z2.338
N665 X356.647 Y394.941
N670 X357.063 Y394.48 Z2.337
N675 X357.506 Y394.044 Z2.336
N680 X357.977 Y393.634
N685 X358.472 Y393.253 Z2.335
N690 X358.989 Y392.902
N695 X359.53 Y392.581 Z2.334
N700 X360.094 Y392.291
N705 X360.718 Y392.017 Z2.333
N710 X395.249 Y378.129 Z2.3
N715 X395.866 Y377.903
N720 X396.448 Y377.726 Z2.299
N725 X397.036 Y377.586
N730 X397.631 Y377.479 Z2.298
N735 X398.228 Y377.408
N740 X398.826 Y377.372 Z2.297
N745 X399.424 Y377.37
N750 X400.024 Y377.404 Z2.296
N755 X400.62 Y377.47
N760 X401.209 Y377.572 Z2.295
N765 X401.794 Y377.708
N770 X402.371 Y377.878 Z2.294
N775 X402.939 Y378.081 Z2.293
N780 X403.497 Y378.318
N785 X404.041 Y378.588 Z2.292
N790 X404.609 Y378.914
N795 X452.41 Y408.211 Z2.243
N800 X452.516 Y408.273 Z2.242
N805 X452.86 Y408.465
N810 X452.975 Y408.526
N815 X453.093 Y408.582
N820 X453.447 Y408.741
N825 X453.563 Y408.79 Z2.241
N830 X453.68 Y408.834
N835 X454.041 Y408.961
N840 X454.163 Y409.001
N845 X454.285 Y409.035
N850 X454.652 Y409.13 Z2.24
N855 X454.772 Y409.159
N860 X454.893 Y409.182
N865 X455.263 Y409.246
N870 X455.389 Y409.265
N875 X455.516 Y409.279
N880 X455.887 Y409.311 Z2.239
N885 X456.016 Y409.319
N890 X456.145 Y409.322
N895 X456.517
N900 X456.639 Y409.32
N905 X456.76 Y409.312
N910 X457.129 Y409.282 Z2.238
N915 X457.255 Y409.269
N920 X457.381 Y409.251
N925 X457.746 Y409.19
N930 X457.87 Y409.166
N935 X457.994 Y409.138 Z2.237
N940 X458.354 Y409.046
N945 X458.478 Y409.011
N950 X458.601 Y408.971
N955 X458.953 Y408.848
N960 X459.066 Y408.806 Z2.236
N965 X459.178 Y408.759
N970 X459.521 Y408.607
N975 X459.639 Y408.552
N980 X459.754 Y408.491
N985 X460.086 Y408.308 Z2.235
N990 X460.194 Y408.246
N995 X460.298 Y408.18
N1000 X460.617 Y407.968
N1005 X460.723 Y407.894
N1010 X460.825 Y407.816
N1015 X461.129 Y407.574 Z2.234
N1020 X461.227 Y407.493
N1025 X461.321 Y407.408
N1030 X461.608 Y407.137
N1035 X461.696 Y407.05
N1040 X496.478 Y371.363 Z2.19
N1045 X496.568 Y371.266
N1050 X496.833 Y370.969 Z2.189
N1055 X496.914 Y370.875
N1060 X496.991 Y370.777
N1065 X497.226 Y370.465
N1070 X497.3 Y370.362
N1075 X497.37 Y370.257
N1080 X497.575 Y369.931 Z2.188
N1085 X497.642 Y369.819
N1090 X497.704 Y369.704
N1095 X497.878 Y369.365
N1100 X497.933 Y369.252
N1105 X497.983 Y369.136
N1110 X498.127 Y368.786 Z2.187
N1115 X498.173 Y368.668
N1120 X498.214 Y368.548
N1125 X498.327 Y368.19
N1130 X498.362 Y368.069
N1135 X498.393 Y367.946 Z2.186
N1140 X498.475 Y367.582
N1145 X498.5 Y367.458
N1150 X498.52 Y367.333
N1155 X498.571 Y366.963
N1160 X498.586 Y366.835 Z2.185
N1165 X498.595 Y366.706
N1170 X498.614 Y366.334
N1175 X498.618 Y366.209
N1180 X498.616 Y366.085
N1185 X498.604 Y365.711 Z2.184
N1190 X498.598 Y365.583
N1195 X498.585 Y365.456
N1200 X498.541 Y365.083
N1205 X498.524 Y364.956
N1210 X498.501 Y364.83
N1215 X498.425 Y364.46 Z2.183
N1220 X498.396 Y364.336
N1225 X498.363 Y364.213
N1230 X498.255 Y363.848
N1235 X498.216 Y363.728
N1240 X498.173 Y363.609
N1245 X498.033 Y363.25 Z2.182
N1250 X497.985 Y363.134
N1255 X497.932 Y363.02
N1260 X497.76 Y362.669
N1265 X497.699 Y362.552
N1270 X497.634 Y362.438 Z2.181
N1275 X497.428 Y362.097
N1280 X497.362 Y361.993
N1285 X468.524 Y318.404 Z2.135
N1290 X468.147 Y317.793 Z2.134
N1295 X467.837 Y317.207
N1300 X467.565 Y316.604 Z2.133
N1305 X467.333 Y315.988
N1310 X467.142 Y315.363 Z2.132
N1315 X466.992 Y314.726 Z2.131
N1320 X466.881 Y314.081
N1325 X466.811 Y313.432 Z2.13
N1330 X466.781 Y312.782
N1335 X466.794 Y312.129 Z2.129
N1340 X466.847 Y311.475
N1345 X466.94 Y310.827 Z2.128
N1350 X467.076 Y310.184 Z2.127
N1355 X467.253 Y309.547
N1360 X467.47 Y308.922 Z2.126
N1365 X467.751 Y308.261
N1370 X484.63 Y271.693 Z2.09
N1375 X484.923 Y271.106
N1380 X485.224 Y270.581 Z2.089
N1385 X485.555 Y270.075
N1390 X485.912 Y269.592 Z2.088
N1395 X486.296 Y269.132
N1400 X486.707 Y268.694 Z2.087
N1405 X487.139 Y268.283
N1410 X487.594 Y267.899 Z2.086
N1415 X488.073 Y267.538 Z2.085
N1420 X488.571 Y267.207
N1425 X489.086 Y266.905 Z2.084
N1430 X489.62 Y266.633
N1435 X490.171 Y266.391 Z2.083
N1440 X490.736 Y266.181
N1445 X491.318 Y266.003 Z2.082
N1450 X491.954 Y265.849
N1455 X543.052 Y255.035 Z2.036
N1460 X543.176 Y255.006
N1465 X543.566 Y254.906 Z2.035
N1470 X543.691 Y254.871
N1475 X543.815 Y254.831
N1480 X544.188 Y254.7
N1485 X544.308 Y254.654
N1490 X544.427 Y254.604
N1495 X544.782 Y254.444 Z2.034
N1500 X544.897 Y254.389
N1505 X545.011 Y254.329
N1510 X545.348 Y254.141
N1515 X545.457 Y254.077
N1520 X545.563 Y254.009 Z2.033
N1525 X545.879 Y253.796
N1530 X545.986 Y253.72
N1535 X546.091 Y253.639
N1540 X546.385 Y253.4
N1545 X546.484 Y253.317 Z2.032
N1550 X546.578 Y253.23
N1555 X546.85 Y252.968
N1560 X546.94 Y252.878
N1565 X547.025 Y252.784
N1570 X547.273 Y252.501 Z2.031
N1575 X547.357 Y252.402
N1580 X547.436 Y252.298
N1585 X547.659 Y251.994
N1590 X547.731 Y251.891
N1595 X547.799 Y251.786
N1600 X547.996 Y251.464 Z2.03
N1605 X548.061 Y251.351
N1610 X548.122 Y251.236
N1615 X548.291 Y250.897
N1620 X548.345 Y250.783
N1625 X548.394 Y250.666
N1630 X548.535 Y250.311 Z2.029
N1635 X548.581 Y250.187
N1640 X548.622 Y250.061
N1645 X548.732 Y249.692
N1650 X548.765 Y249.572 Z2.028
N1655 X548.793 Y249.45
N1660 X548.873 Y249.068
N1665 X548.897 Y248.939
N1670 X548.916 Y248.81
N1675 X548.963 Y248.418 Z2.027
N1680 X548.975 Y248.288
N1685 X548.982 Y248.158
N1690 X548.995 Y247.756
N1695 X548.997 Y247.631
N1700 X548.553 Y199.296 Z1.984
N1705 X548.549 Y199.167
N1710 X548.528 Y198.767
N1715 X548.518 Y198.639
N1720 X548.504 Y198.513
N1725 X548.45 Y198.123 Z1.983
N1730 X548.43 Y197.999
N1735 X548.405 Y197.876
N1740 X548.32 Y197.498
N1745 X548.288 Y197.368
N1750 X548.25 Y197.24 Z1.982
N1755 X548.133 Y196.875
N1760 X548.092 Y196.756
N1765 X548.046 Y196.639
N1770 X547.9 Y196.288
N1775 X547.849 Y196.171 Z1.981
N1780 X547.792 Y196.057
N1785 X547.618 Y195.722
N1790 X547.557 Y195.611
N1795 X547.492 Y195.502
N1800 X547.291 Y195.184 Z1.98
N1805 X547.219 Y195.075
N1810 X547.141 Y194.969
N1815 X546.914 Y194.671
N1820 X546.836 Y194.573
N1825 X546.754 Y194.478
N1830 X546.502 Y194.199 Z1.979
N1835 X546.415 Y194.107
N1840 X546.324 Y194.018
N1845 X546.05 Y193.762
N1850 X545.954 Y193.676
N1855 X545.854 Y193.594
N1860 X545.557 Y193.361 Z1.978
N1865 X545.456 Y193.285
N1870 X545.353 Y193.214
N1875 X545.035 Y193.005
N1880 X544.923 Y192.935
N1885 X544.809 Y192.871 Z1.977
N1890 X544.471 Y192.689
N1895 X544.357 Y192.63
N1900 X544.24 Y192.577
N1905 X543.884 Y192.423
N1910 X543.766 Y192.375 Z1.976
N1915 X543.646 Y192.331
N1920 X543.273 Y192.206
N1925 X543.153 Y192.169
N1930 X543.032 Y192.137
N1935 X542.643 Y192.042 Z1.975
N1940 X542.515 Y192.013
N1945 X493.796 Y182.348 Z1.932
N1950 X493.117 Y182.19 Z1.931
N1955 X492.498 Y182.006 Z1.93
N1960 X491.895 Y181.784
N1965 X491.311 Y181.527 Z1.929
N1970 X490.744 Y181.235
N1975 X490.197 Y180.909 Z1.928
N1980 X489.672 Y180.551
N1985 X489.172 Y180.162 Z1.927
N1990 X488.694 Y179.742
N1995 X488.243 Y179.295 Z1.926
N2000 X487.821 Y178.821 Z1.925
N2005 X487.427 Y178.319
N2010 X487.063 Y177.793 Z1.924
N2015 X486.731 Y177.243
N2020 X486.433 Y176.67 Z1.923
N2025 X486.15 Y176.033
N2030 X469.331 Y134.662 Z1.883
N2035 X469.091 Y134.015
N2040 X468.906 Y133.403 Z1.882
N2045 X468.76 Y132.782
N2050 X468.653 Y132.157 Z1.881
N2055 X468.584 Y131.531 Z1.88
N2060 X468.555 Y130.901
N2065 X468.563 Y130.271 Z1.879
N2070 X468.609 Y129.644
N2075 X468.693 Y129.019 Z1.878
N2080 X468.815 Y128.402
N2085 X468.974 Y127.792 Z1.877
N2090 X469.17 Y127.191
N2095 X469.403 Y126.603 Z1.876
N2100 X469.673 Y126.028 Z1.875
N2105 X469.981 Y125.466
N2110 X470.349 Y124.881 Z1.874
N2115 X497.284 Y84.974 Z1.832
N2120 X497.355 Y84.864
N2125 X497.568 Y84.517
N2130 X497.633 Y84.405 Z1.831
N2135 X497.693 Y84.29
N2140 X497.872 Y83.932
N2145 X497.928 Y83.814
N2150 X497.979 Y83.694
N2155 X498.124 Y83.327 Z1.83
N2160 X498.17 Y83.204
N2165 X498.21 Y83.079
N2170 X498.321 Y82.705
N2175 X498.355 Y82.581
N2180 X498.383 Y82.457
N2185 X498.461 Y82.078 Z1.829
N2190 X498.485 Y81.948
N2195 X498.503 Y81.817
N2200 X498.547 Y81.436
N2205 X498.559 Y81.311
N2210 X498.566 Y81.186 Z1.828
N2215 X498.578 Y80.804
N2220 X498.579 Y80.67
N2225 X498.574 Y80.537
N2230 X498.552 Y80.156
N2235 X498.542 Y80.026 Z1.827
N2240 X498.526 Y79.896
N2245 X498.471 Y79.52
N2250 X498.449 Y79.394
N2255 X498.423 Y79.269
N2260 X498.336 Y78.897 Z1.826
N2265 X498.303 Y78.769
N2270 X498.264 Y78.643
N2275 X498.144 Y78.278
N2280 X498.103 Y78.16
N2285 X498.056 Y78.043
N2290 X497.905 Y77.688 Z1.825
N2295 X497.85 Y77.565
N2300 X497.789 Y77.446
N2305 X497.605 Y77.102
N2310 X497.542 Y76.991
N2315 X497.475 Y76.882 Z1.824
N2320 X497.26 Y76.552
N2325 X497.186 Y76.442
N2330 X497.106 Y76.337
N2335 X496.859 Y76.021
N2340 X496.778 Y75.922 Z1.823
N2345 X496.692 Y75.825
N2350 X496.414 Y75.527
N2355 X496.323 Y75.434
N2360 X460.706 Y40.426 Z1.779
N2365 X460.617 Y40.342
N2370 X460.328 Y40.08
N2375 X460.233 Y39.998 Z1.778
N2380 X460.135 Y39.919
N2385 X459.83 Y39.686
N2390 X459.727 Y39.611
N2395 X459.621 Y39.54
N2400 X459.301 Y39.336 Z1.777
N2405 X459.194 Y39.271
N2410 X459.084 Y39.211
N2415 X458.752 Y39.036
N2420 X458.641 Y38.981
N2425 X458.527 Y38.93
N2430 X458.185 Y38.785 Z1.776
N2435 X458.07 Y38.739
N2440 X457.953 Y38.698
N2445 X457.603 Y38.583
N2450 X457.482 Y38.546
N2455 X457.36 Y38.514
N2460 X457.002 Y38.429 Z1.775
N2465 X456.88 Y38.402
N2470 X456.758 Y38.381
N2475 X456.395 Y38.326
N2480 X456.272 Y38.31
N2485 X456.148 Y38.299 Z1.774
N2490 X455.782 Y38.274
N2495 X455.657 Y38.268
N2500 X455.532 Y38.267
N2505 X455.164 Y38.273
N2510 X455.039 Y38.277 Z1.773
N2515 X454.915 Y38.287
N2520 X454.548 Y38.323
N2525 X454.424 Y38.338
N2530 X454.301 Y38.358
N2535 X453.935 Y38.425 Z1.772
N2540 X453.812 Y38.451
N2545 X453.69 Y38.481
N2550 X453.329 Y38.579
N2555 X453.209 Y38.615
N2560 X453.09 Y38.655
N2565 X452.734 Y38.784 Z1.771
N2570 X452.618 Y38.83
N2575 X452.503 Y38.88
N2580 X452.154 Y39.041
N2585 X452.04 Y39.096
N2590 X451.928 Y39.157
N2595 X451.589 Y39.349 Z1.77
N2600 X451.484 Y39.412
N2605 X409.186 Y65.791 Z1.726
N2610 X408.572 Y66.148
N2615 X407.983 Y66.441 Z1.725
N2620 X407.382 Y66.694
N2625 X406.767 Y66.908 Z1.724
N2630 X406.142 Y67.083 Z1.723
N2635 X405.509 Y67.218
N2640 X404.87 Y67.313 Z1.722
N2645 X404.227 Y67.368
N2650 X403.581 Y67.383 Z1.721
N2655 X402.934 Y67.358
N2660 X402.291 Y67.293 Z1.72
N2665 X401.651 Y67.187 Z1.719
N2670 X401.017 Y67.041
N2675 X400.39 Y66.855 Z1.718
N2680 X399.775 Y66.628
N2685 X399.125 Y66.341 Z1.717
N2690 X388.252 Y61.107 Z1.706
N2695 X388.119 Y61.046
N2700 X387.675 Y60.859
N2705 X387.534 Y60.803
N2710 X387.391 Y60.755
N2715 X386.941 Y60.616 Z1.705
N2720 X386.796 Y60.576
N2725 X386.65 Y60.543
N2730 X386.199 Y60.452
N2735 X386.05 Y60.425 Z1.704
N2740 X385.899 Y60.407
N2745 X385.448 Y60.362
N2750 X385.297 Y60.351
N2755 X385.146 Y60.348
N2760 X384.7 Y60.349 Z1.703
N2765 X384.548 Y60.354
N2770 X384.397 Y60.366
N2775 X383.957 Y60.412
N2780 X383.808 Y60.431 Z1.702
N2785 X383.66 Y60.458
N2790 X383.229 Y60.547
N2795 X383.08 Y60.582
N2800 X382.934 Y60.624
N2805 X382.517 Y60.756 Z1.701
N2810 X382.375 Y60.805
N2815 X382.236 Y60.86
N2820 X381.833 Y61.033
N2825 X381.695 Y61.097
N2830 X381.56 Y61.168 Z1.7
N2835 X381.176 Y61.381
N2840 X381.046 Y61.458
N2845 X380.92 Y61.541
N2850 X380.557 Y61.793 Z1.699
N2855 X380.435 Y61.883
N2860 X380.318 Y61.979
N2865 X379.979 Y62.27
N2870 X379.866 Y62.371
N2875 X379.759 Y62.479 Z1.698
N2880 X379.447 Y62.807
N2885 X379.345 Y62.919
N2890 X379.249 Y63.037
N2895 X378.967 Y63.401 Z1.697
N2900 X378.877 Y63.523
N2905 X378.793 Y63.649
N2910 X378.544 Y64.048
N2915 X378.469 Y64.176
N2920 X378.4 Y64.307 Z1.696
N2925 X378.186 Y64.74
N2930 X378.123 Y64.875
N2935 X369.412 Y84.934 Z1.677
N2940 X369.398 Y84.968
N2945 X369.332 Y85.105 Z1.676
N2950 X369.252 Y85.233
N2955 X369.16 Y85.352
N2960 X369.055 Y85.461
N2965 X368.939 Y85.558
N2970 X368.814 Y85.643
N2975 X368.68 Y85.713
N2980 X368.54 Y85.77
N2985 X368.395 Y85.811 Z1.675
N2990 X368.246 Y85.837
N2995 X368.095 Y85.846
N3000 X367.944 Y85.84
N3005 X367.795 Y85.818
N3010 X367.648 Y85.781
N3015 X367.507 Y85.728
N3020 X367.371 Y85.661 Z1.674
N3025 X367.244 Y85.579
N3030 X367.126 Y85.485
N3035 X367.018 Y85.379
N3040 X366.923 Y85.262
N3045 X366.84 Y85.136
N3050 X366.771 Y85.002
N3055 X366.716 Y84.861
N3060 X366.677 Y84.715 Z1.673
N3065 X366.653 Y84.566
N3070 X366.645 Y84.415
N3075 X366.653 Y84.264
N3080 X366.676 Y84.115
N3085 X366.716 Y83.969
N3090 X366.77 Y83.828
N3095 X366.785 Y83.795
N3100 X375.481 Y63.773 Z1.653
N3105 X375.728 Y63.245
N3110 X375.981 Y62.769 Z1.652
N3115 X376.255 Y62.313
N3120 X376.548 Y61.878
N3125 X376.862 Y61.461 Z1.651
N3130 X377.196 Y61.061
N3135 X377.548 Y60.682 Z1.65
N3140 X377.918 Y60.321
N3145 X378.306 Y59.979 Z1.649
N3150 X378.707 Y59.659
N3155 X379.125 Y59.359 Z1.648
N3160 X379.556 Y59.08
N3165 X380 Y58.822 Z1.647
N3170 X380.456 Y58.586
N3175 X380.923 Y58.373
N3180 X381.4 Y58.182 Z1.646
N3185 X381.885 Y58.015
N3190 X382.377 Y57.871 Z1.645
N3195 X382.877 Y57.752
N3200 X383.381 Y57.656 Z1.644
N3205 X383.89 Y57.585
N3210 X384.402 Y57.54 Z1.643
N3215 X384.916 Y57.519
N3220 X385.432 Y57.525 Z1.642
N3225 X385.948 Y57.556
N3230 X386.462 Y57.613
N3235 X386.975 Y57.697 Z1.641
N3240 X387.486 Y57.808
N3245 X387.995 Y57.946 Z1.64
N3250 X388.498 Y58.111
N3255 X388.999 Y58.305 Z1.639
N3260 X389.53 Y58.544
N3265 X400.411 Y63.781 Z1.628
N3270 X400.583 Y63.858
N3275 X401.115 Y64.074 Z1.627
N3280 X401.293 Y64.14
N3285 X401.476 Y64.194
N3290 X402.024 Y64.34
N3295 X402.208 Y64.382 Z1.626
N3300 X402.394 Y64.413
N3305 X402.951 Y64.488
N3310 X403.137 Y64.507
N3315 X403.325 Y64.514 Z1.625
N3320 X403.884 Y64.519
N3325 X404.072 Y64.514
N3330 X404.259 Y64.498
N3335 X404.814 Y64.433 Z1.624
N3340 X404.999 Y64.405
N3345 X405.183 Y64.366
N3350 X405.729 Y64.231 Z1.623
N3355 X405.911 Y64.18
N3360 X406.09 Y64.117
N3365 X406.618 Y63.913 Z1.622
N3370 X406.792 Y63.84
N3375 X406.961 Y63.755
N3380 X407.467 Y63.482
N3385 X407.631 Y63.387 Z1.621
N3390 X449.94 Y36.999 Z1.578
N3395 X450.35 Y36.756 Z1.577
N3400 X450.74 Y36.546
N3405 X451.135 Y36.356 Z1.576
N3410 X451.535 Y36.183
N3415 X451.941 Y36.028
N3420 X452.351 Y35.891 Z1.575
N3425 X452.765 Y35.771
N3430 X453.183 Y35.669
N3435 X453.604 Y35.585 Z1.574
N3440 X454.026 Y35.519
N3445 X454.452 Y35.47 Z1.573
N3450 X454.877 Y35.438
N3455 X455.305 Y35.424
N3460 X455.731 Y35.428 Z1.572
N3465 X456.157 Y35.448
N3470 X456.582 Y35.486
N3475 X457.005 Y35.542 Z1.571
N3480 X457.426 Y35.614
N3485 X457.843 Y35.703 Z1.57
N3490 X458.256 Y35.81
N3495 X458.666 Y35.934
N3500 X459.07 Y36.074 Z1.569
N3505 X459.467 Y36.23
N3510 X459.86 Y36.404
N3515 X460.247 Y36.595 Z1.568
N3520 X460.625 Y36.801
N3525 X460.996 Y37.024 Z1.567
N3530 X461.356 Y37.263
N3535 X461.71 Y37.519
N3540 X462.055 Y37.792 Z1.566
N3545 X462.389 Y38.08
N3550 X462.736 Y38.407 Z1.565
N3555 X498.307 Y73.367 Z1.522
N3560 X498.654 Y73.724 Z1.521
N3565 X498.961 Y74.068
N3570 X499.248 Y74.422 Z1.52
N3575 X499.517 Y74.786
N3580 X499.77 Y75.161
N3585 X500.005 Y75.545 Z1.519
N3590 X500.221 Y75.936
N3595 X500.421 Y76.336 Z1.518
N3600 X500.603 Y76.745
N3605 X500.766 Y77.158
N3610 X500.91 Y77.576 Z1.517
N3615 X501.038 Y78.004
N3620 X501.147 Y78.434 Z1.516
N3625 X501.237 Y78.867
N3630 X501.31 Y79.306
N3635 X501.363 Y79.746 Z1.515
N3640 X501.398 Y80.188
N3645 X501.415 Y80.631 Z1.514
N3650 X501.412 Y81.073
N3655 X501.391 Y81.517
N3660 X501.351 Y81.961 Z1.513
N3665 X501.292 Y82.401
N3670 X501.214 Y82.839
N3675 X501.117 Y83.274 Z1.512
N3680 X501.002 Y83.706
N3685 X500.868 Y84.132 Z1.511
N3690 X500.713 Y84.556
N3695 X500.541 Y84.973
N3700 X500.349 Y85.383 Z1.51
N3705 X500.137 Y85.788
N3710 X499.906 Y86.186 Z1.509
N3715 X499.637 Y86.606
N3720 X472.697 Y126.523 Z1.467
N3725 X472.599 Y126.678 Z1.466
N3730 X472.315 Y127.16
N3735 X472.227 Y127.321
N3740 X472.149 Y127.487
N3745 X471.929 Y127.993 Z1.465
N3750 X471.86 Y128.166
N3755 X471.802 Y128.343
N3760 X471.648 Y128.867 Z1.464
N3765 X471.602 Y129.041
N3770 X471.567 Y129.217
N3775 X471.477 Y129.754
N3780 X471.452 Y129.938 Z1.463
N3785 X471.439 Y130.123
N3790 X471.416 Y130.667
N3795 X471.414 Y130.849
N3800 X471.422 Y131.03 Z1.462
N3805 X471.465 Y131.575
N3810 X471.486 Y131.759
N3815 X471.517 Y131.942
N3820 X471.628 Y132.483 Z1.461
N3825 X471.671 Y132.661
N3830 X471.724 Y132.837
N3835 X471.902 Y133.366 Z1.46
N3840 X471.966 Y133.539
N3845 X488.819 Y174.999 Z1.421
N3850 X488.895 Y175.17
N3855 X489.14 Y175.679 Z1.42
N3860 X489.225 Y175.843
N3865 X489.32 Y176.001
N3870 X489.621 Y176.469 Z1.419
N3875 X489.726 Y176.622
N3880 X489.841 Y176.769
N3885 X490.195 Y177.193
N3890 X490.319 Y177.332 Z1.418
N3895 X490.452 Y177.464
N3900 X490.854 Y177.839
N3905 X490.991 Y177.959
N3910 X491.135 Y178.071 Z1.417
N3915 X491.579 Y178.394
N3920 X491.731 Y178.497
N3925 X491.888 Y178.591
N3930 X492.371 Y178.859 Z1.416
N3935 X492.539 Y178.946
N3940 X492.712 Y179.021
N3945 X493.229 Y179.228 Z1.415
N3950 X493.402 Y179.291
N3955 X493.578 Y179.343
N3960 X494.123 Y179.487 Z1.414
N3965 X494.305 Y179.53
N3970 X543.039 Y189.198 Z1.371
N3975 X543.515 Y189.304 Z1.37
N3980 X543.951 Y189.421
N3985 X544.38 Y189.557 Z1.369
N3990 X544.801 Y189.71
N3995 X545.211 Y189.88
N4000 X545.614 Y190.068 Z1.368
N4005 X546.003 Y190.27
N4010 X546.382 Y190.489 Z1.367
N4015 X546.755 Y190.725
N4020 X547.115 Y190.975
N4025 X547.463 Y191.239 Z1.366
N4030 X547.801 Y191.519
N4035 X548.125 Y191.811
N4040 X548.436 Y192.115 Z1.365
N4045 X548.735 Y192.434
N4050 X549.022 Y192.765 Z1.364
N4055 X549.293 Y193.106
N4060 X549.549 Y193.458
N4065 X549.792 Y193.823 Z1.363
N4070 X550.02 Y194.196
N4075 X550.229 Y194.575 Z1.362
N4080 X550.425 Y194.969
N4085 X550.605 Y195.37
N4090 X550.766 Y195.776 Z1.361
N4095 X550.912 Y196.192
N4100 X551.039 Y196.614
N4105 X551.148 Y197.042 Z1.36
N4110 X551.24 Y197.479
N4115 X551.312 Y197.919 Z1.359
N4120 X551.365 Y198.363
N4125 X551.399 Y198.814
N4130 X551.414 Y199.304 Z1.358
N4135 X551.86 Y247.574 Z1.316
N4140 X551.854 Y248.064 Z1.315
N4145 X551.828 Y248.516
N4150 X551.782 Y248.966
N4155 X551.717 Y249.41 Z1.314
N4160 X551.634 Y249.846
N4165 X551.531 Y250.28 Z1.313
N4170 X551.411 Y250.707
N4175 X551.273 Y251.124
N4180 X551.117 Y251.537 Z1.312
N4185 X550.943 Y251.942
N4190 X550.754 Y252.337 Z1.311
N4195 X550.548 Y252.725
N4200 X550.325 Y253.106
N4205 X550.089 Y253.473 Z1.31
N4210 X549.837 Y253.83
N4215 X549.57 Y254.177 Z1.309
N4220 X549.285 Y254.516
N4225 X548.991 Y254.839
N4230 X548.684 Y255.149 Z1.308
N4235 X548.361 Y255.448
N4240 X548.029 Y255.732
N4245 X547.682 Y256.003 Z1.307
N4250 X547.323 Y256.261
N4255 X546.956 Y256.5 Z1.306
N4260 X546.576 Y256.726
N4265 X546.185 Y256.936
N4270 X545.786 Y257.129 Z1.305
N4275 X545.376 Y257.306
N4280 X544.955 Y257.465 Z1.304
N4285 X544.527 Y257.607
N4290 X544.091 Y257.731
N4295 X543.613 Y257.843 Z1.303
N4300 X492.502 Y268.659 Z1.257
N4305 X492.329 Y268.701
N4310 X491.819 Y268.841
N4315 X491.652 Y268.892
N4320 X491.489 Y268.953 Z1.256
N4325 X491.004 Y269.149
N4330 X490.845 Y269.218
N4335 X490.69 Y269.297
N4340 X490.234 Y269.546 Z1.255
N4345 X490.083 Y269.634
N4350 X489.938 Y269.731
N4355 X489.516 Y270.03 Z1.254
N4360 X489.377 Y270.134
N4365 X489.245 Y270.247
N4370 X488.86 Y270.593
N4375 X488.735 Y270.711 Z1.253
N4380 X488.618 Y270.837
N4385 X488.274 Y271.226
N4390 X488.162 Y271.36
N4395 X488.058 Y271.5
N4400 X487.759 Y271.93 Z1.252
N4405 X487.662 Y272.078
N4410 X487.575 Y272.232
N4415 X487.326 Y272.699 Z1.251
N4420 X487.249 Y272.853
N4425 X470.33 Y309.504 Z1.216
N4430 X470.255 Y309.682
N4435 X470.046 Y310.224 Z1.215
N4440 X469.983 Y310.403
N4445 X469.932 Y310.585
N4450 X469.795 Y311.141 Z1.214
N4455 X469.755 Y311.33
N4460 X469.727 Y311.521
N4465 X469.663 Y312.085 Z1.213
N4470 X469.648 Y312.272
N4475 X469.644 Y312.46
N4480 X469.651 Y313.025
N4485 X469.66 Y313.217 Z1.212
N4490 X469.681 Y313.408
N4495 X469.76 Y313.967
N4500 X469.792 Y314.152
N4505 X469.835 Y314.334 Z1.211
N4510 X469.984 Y314.882
N4515 X470.04 Y315.064
N4520 X470.107 Y315.243
N4525 X470.326 Y315.772 Z1.21
N4530 X470.406 Y315.948
N4535 X470.497 Y316.119
N4540 X470.786 Y316.622 Z1.209
N4545 X470.885 Y316.782
N4550 X499.732 Y360.385 Z1.163
N4555 X499.991 Y360.797
N4560 X500.215 Y361.187 Z1.162
N4565 X500.419 Y361.584
N4570 X500.604 Y361.986 Z1.161
N4575 X500.771 Y362.393
N4580 X500.919 Y362.808
N4585 X501.051 Y363.227 Z1.16
N4590 X501.163 Y363.649
N4595 X501.257 Y364.075
N4600 X501.333 Y364.503 Z1.159
N4605 X501.391 Y364.933
N4610 X501.431 Y365.365 Z1.158
N4615 X501.453 Y365.802
N4620 X501.457 Y366.237
N4625 X501.444 Y366.667 Z1.157
N4630 X501.412 Y367.099
N4635 X501.362 Y367.53 Z1.156
N4640 X501.294 Y367.961
N4645 X501.209 Y368.387
N4650 X501.107 Y368.807 Z1.155
N4655 X500.987 Y369.223
N4660 X500.848 Y369.638
N4665 X500.694 Y370.044 Z1.154
N4670 X500.521 Y370.445
N4675 X500.331 Y370.84 Z1.153
N4680 X500.126 Y371.224
N4685 X499.901 Y371.604
N4690 X499.66 Y371.975 Z1.152
N4695 X499.404 Y372.335
N4700 X499.129 Y372.687 Z1.151
N4705 X498.836 Y373.03
N4710 X498.505 Y373.385
N4715 X463.769 Y409.025 Z1.107
N4720 X463.425 Y409.363 Z1.106
N4725 X463.094 Y409.661
N4730 X462.75 Y409.945
N4735 X462.4 Y410.21 Z1.105
N4740 X462.039 Y410.458
N4745 X461.668 Y410.691
N4750 X461.293 Y410.905 Z1.104
N4755 X460.904 Y411.105
N4760 X460.51 Y411.289 Z1.103
N4765 X460.114 Y411.453
N4770 X459.708 Y411.601
N4775 X459.293 Y411.733 Z1.102
N4780 X458.879 Y411.848
N4785 X458.461 Y411.944 Z1.101
N4790 X458.035 Y412.025
N4795 X457.611 Y412.086
N4800 X457.182 Y412.131 Z1.1
N4805 X456.751 Y412.158
N4810 X456.321 Y412.167
N4815 X455.891 Y412.159 Z1.099
N4820 X455.459 Y412.132
N4825 X455.027 Y412.088 Z1.098
N4830 X454.601 Y412.027
N4835 X454.175 Y411.946
N4840 X453.751 Y411.848 Z1.097
N4845 X453.334 Y411.733
N4850 X452.919 Y411.598
N4855 X452.504 Y411.445 Z1.096
N4860 X452.098 Y411.275
N4865 X451.701 Y411.087 Z1.095
N4870 X451.305 Y410.878
N4875 X450.887 Y410.635
N4880 X403.076 Y381.333 Z1.045
N4885 X402.926 Y381.247
N4890 X402.458 Y380.996
N4895 X402.299 Y380.917
N4900 X402.136 Y380.848 Z1.044
N4905 X401.647 Y380.656
N4910 X401.484 Y380.597
N4915 X401.318 Y380.548
N4920 X400.815 Y380.415 Z1.043
N4925 X400.643 Y380.375
N4930 X400.47 Y380.345
N4935 X399.956 Y380.272 Z1.042
N4940 X399.783 Y380.252
N4945 X399.609 Y380.243
N4950 X399.09 Y380.23
N4955 X398.917 Y380.231 Z1.041
N4960 X398.744 Y380.241
N4965 X398.226 Y380.288
N4970 X398.055 Y380.309
N4975 X397.886 Y380.339
N4980 X397.372 Y380.446 Z1.04
N4985 X397.198 Y380.487
N4990 X397.028 Y380.539
N4995 X396.525 Y380.708 Z1.039
N5000 X396.361 Y380.769
N5005 X361.742 Y394.693 Z1.006
N5010 X361.575 Y394.766
N5015 X361.076 Y395.003
N5020 X360.914 Y395.086
N5025 X360.758 Y395.179 Z1.005
N5030 X360.297 Y395.471
N5035 X360.146 Y395.572
N5040 X360.002 Y395.683
N5045 X359.584 Y396.025 Z1.004
N5050 X359.448 Y396.144
N5055 X359.319 Y396.271
N5060 X358.946 Y396.66 Z1.003
N5065 X358.825 Y396.793
N5070 X358.712 Y396.934
N5075 X358.389 Y397.364
N5080 X358.284 Y397.514 Z1.002
N5085 X358.188 Y397.669
N5090 X357.918 Y398.138
N5095 X357.833 Y398.297
N5100 X357.757 Y398.461 Z1.001
N5105 X357.544 Y398.962
N5110 X357.478 Y399.132
N5115 X357.422 Y399.305
N5120 X357.269 Y399.836 Z1
N5125 X357.224 Y400.012
N5130 X345.341 Y453.169 Z0.952
N5135 X345.223 Y453.644
N5140 X345.095 Y454.078 Z0.951
N5145 X344.95 Y454.502
N5150 X344.787 Y454.919 Z0.95
N5155 X344.607 Y455.325
N5160 X344.412 Y455.719
N5165 X344.199 Y456.104 Z0.949
N5170 X343.969 Y456.482
N5175 X343.725 Y456.848
N5180 X343.468 Y457.2 Z0.948
N5185 X343.196 Y457.541
N5190 X342.91 Y457.871 Z0.947
N5195 X342.609 Y458.188
N5200 X342.295 Y458.494
N5205 X341.971 Y458.785 Z0.946
N5210 X341.635 Y459.062
N5215 X341.288 Y459.324 Z0.945
N5220 X340.929 Y459.573
N5225 X340.558 Y459.808
N5230 X340.181 Y460.026 Z0.944
N5235 X339.797 Y460.226
N5240 X339.399 Y460.413
N5245 X338.994 Y460.583 Z0.943
N5250 X338.583 Y460.735
N5255 X338.165 Y460.87 Z0.942
N5260 X337.74 Y460.987
N5265 X337.309 Y461.087
N5270 X336.873 Y461.167 Z0.941
N5275 X336.431 Y461.23
N5280 X335.985 Y461.273 Z0.94
N5285 X335.531 Y461.297
N5290 X335.043 Y461.301
N5295 X283.891 Y460.578 Z0.895
N5300 X283.411 Y460.561 Z0.894
N5305 X282.97 Y460.526
N5310 X282.529 Y460.471 Z0.893
N5315 X282.095 Y460.399
N5320 X281.67 Y460.309
N5325 X281.248 Y460.201 Z0.892
N5330 X280.831 Y460.075
N5335 X280.422 Y459.933
N5340 X280.02 Y459.774 Z0.891
N5345 X279.625 Y459.598
N5350 X279.239 Y459.407 Z0.89
N5355 X278.864 Y459.201
N5360 X278.493 Y458.977
N5365 X278.137 Y458.742 Z0.889
N5370 X277.788 Y458.49
N5375 X277.449 Y458.224
N5380 X277.123 Y457.945 Z0.888
N5385 X276.808 Y457.654
N5390 X276.504 Y457.348 Z0.887
N5395 X276.213 Y457.03
N5400 X275.938 Y456.703
N5405 X275.674 Y456.361 Z0.886
N5410 X275.423 Y456.008
N5415 X275.188 Y455.647
N5420 X274.968 Y455.274 Z0.885
N5425 X274.763 Y454.892
N5430 X274.574 Y454.501 Z0.884
N5435 X274.401 Y454.097
N5440 X274.245 Y453.688
N5445 X274.105 Y453.268 Z0.883
N5450 X273.983 Y452.84
N5455 X273.872 Y452.373 Z0.882
N5460 X262.557 Y399.953 Z0.835
N5465 X262.512 Y399.771
N5470 X262.361 Y399.236
N5475 X262.307 Y399.063 Z0.834
N5480 X262.242 Y398.894
N5485 X262.03 Y398.387
N5490 X261.955 Y398.221
N5495 X261.87 Y398.061 Z0.833
N5500 X261.601 Y397.588
N5505 X261.506 Y397.432
N5510 X261.401 Y397.282
N5515 X261.077 Y396.846 Z0.832
N5520 X260.963 Y396.701
N5525 X260.84 Y396.564
N5530 X260.466 Y396.172 Z0.831
N5535 X260.338 Y396.046
N5540 X260.203 Y395.928
N5545 X259.782 Y395.581
N5550 X259.635 Y395.468 Z0.83
N5555 X259.482 Y395.363
N5560 X259.019 Y395.069
N5565 X258.863 Y394.977
N5570 X258.701 Y394.893 Z0.829
N5575 X258.199 Y394.654
N5580 X258.03 Y394.58
N5585 X223.565 Y380.702 Z0.796
N5590 X223.398 Y380.641
N5595 X222.888 Y380.47
N5600 X222.717 Y380.418 Z0.795
N5605 X222.544 Y380.377
N5610 X222.024 Y380.269
N5615 X221.851 Y380.238
N5620 X221.676 Y380.217 Z0.794
N5625 X221.151 Y380.171
N5630 X220.974 Y380.161
N5635 X220.798
N5640 X220.273 Y380.177 Z0.793
N5645 X220.098 Y380.188
N5650 X219.924 Y380.208
N5655 X219.405 Y380.285 Z0.792
N5660 X219.231 Y380.316
N5665 X219.06 Y380.358
N5670 X218.551 Y380.496
N5675 X218.379 Y380.548
N5680 X218.211 Y380.61 Z0.791
N5685 X217.719 Y380.809
N5690 X217.56 Y380.879
N5695 X217.405 Y380.958
N5700 X216.933 Y381.216 Z0.79
N5705 X216.776 Y381.308
N5710 X169.917 Y410.745 Z0.741
N5715 X169.507 Y410.991
N5720 X169.118 Y411.201
N5725 X168.723 Y411.393 Z0.74
N5730 X168.321 Y411.568
N5735 X167.914 Y411.725 Z0.739
N5740 X167.505 Y411.863
N5745 X167.091 Y411.984
N5750 X166.673 Y412.087 Z0.738
N5755 X166.251 Y412.172
N5760 X165.826 Y412.24 Z0.737
N5765 X165.399 Y412.29
N5770 X164.974 Y412.323
N5775 X164.546 Y412.338 Z0.736
N5780 X164.119 Y412.335
N5785 X163.692 Y412.315
N5790 X163.265 Y412.278 Z0.735
N5795 X162.842 Y412.223
N5800 X162.422 Y412.152 Z0.734
N5805 X162.001 Y412.061
N5810 X161.586 Y411.956
N5815 X161.177 Y411.833 Z0.733
N5820 X160.77 Y411.692
N5825 X160.371 Y411.536
N5830 X159.979 Y411.363 Z0.732
N5835 X159.593 Y411.172
N5840 X159.211 Y410.964 Z0.731
N5845 X158.841 Y410.742
N5850 X158.478 Y410.503
N5855 X158.124 Y410.247 Z0.73
N5860 X157.779 Y409.973
N5865 X157.444 Y409.685
N5870 X157.096 Y409.357 Z0.729
N5875 X121.563 Y374.445 Z0.685
N5880 X121.215 Y374.087
N5885 X120.909 Y373.743 Z0.684
N5890 X120.621 Y373.389
N5895 X120.351 Y373.025
N5900 X120.099 Y372.65 Z0.683
N5905 X119.864 Y372.267
N5910 X119.647 Y371.873 Z0.682
N5915 X119.447 Y371.473
N5920 X119.267 Y371.069
N5925 X119.103 Y370.652 Z0.681
N5930 X118.957 Y370.233
N5935 X118.831 Y369.807
N5940 X118.721 Y369.376 Z0.68
N5945 X118.631 Y368.943
N5950 X118.558 Y368.503 Z0.679
N5955 X118.505 Y368.063
N5960 X118.47 Y367.621
N5965 X118.453 Y367.178 Z0.678
N5970 X118.456 Y366.736
N5975 X118.477 Y366.291 Z0.677
N5980 X118.517 Y365.847
N5985 X118.576 Y365.407
N5990 X118.654 Y364.968 Z0.676
N5995 X118.75 Y364.535
N6000 X118.866 Y364.103 Z0.675
N6005 X119.001 Y363.675
N6010 X119.156 Y363.251
N6015 X119.328 Y362.833 Z0.674
N6020 X119.52 Y362.425
N6025 X119.732 Y362.02 Z0.673
N6030 X119.964 Y361.621
N6035 X120.233 Y361.202
N6040 X148.831 Y318.874 Z0.628
N6045 X148.929 Y318.72
N6050 X149.214 Y318.237 Z0.627
N6055 X149.304 Y318.073
N6060 X149.383 Y317.904
N6065 X149.603 Y317.396 Z0.626
N6070 X149.671 Y317.225
N6075 X149.728 Y317.051
N6080 X149.883 Y316.523 Z0.625
N6085 X149.929 Y316.346
N6090 X149.965 Y316.166
N6095 X150.054 Y315.627
N6100 X150.078 Y315.443
N6105 X150.092 Y315.259 Z0.624
N6110 X150.114 Y314.713
N6115 X150.115 Y314.532
N6120 X150.106 Y314.351
N6125 X150.062 Y313.804 Z0.623
N6130 X150.042 Y313.621
N6135 X150.01 Y313.439
N6140 X149.898 Y312.896 Z0.622
N6145 X149.855 Y312.716
N6150 X149.801 Y312.539
N6155 X149.621 Y312.008 Z0.621
N6160 X149.556 Y311.833
N6165 X134.237 Y274.459 Z0.586
N6170 X134.165 Y274.297
N6175 X133.929 Y273.806 Z0.585
N6180 X133.846 Y273.646
N6185 X133.753 Y273.491
N6190 X133.463 Y273.037 Z0.584
N6195 X133.361 Y272.887
N6200 X133.249 Y272.743
N6205 X132.909 Y272.331
N6210 X132.792 Y272.197 Z0.583
N6215 X132.668 Y272.071
N6220 X132.283 Y271.703
N6225 X132.15 Y271.584
N6230 X132.011 Y271.473 Z0.582
N6235 X131.586 Y271.154
N6240 X131.441 Y271.051
N6245 X131.29 Y270.958
N6250 X130.828 Y270.69 Z0.581
N6255 X130.669 Y270.604
N6260 X130.504 Y270.527
N6265 X130.009 Y270.315 Z0.58
N6270 X129.844 Y270.25
N6275 X129.675 Y270.195
N6280 X129.152 Y270.041
N6285 X128.976 Y269.995 Z0.579
N6290 X75.917 Y257.812 Z0.532
N6295 X75.451 Y257.694 Z0.531
N6300 X75.025 Y257.567
N6305 X74.606 Y257.421 Z0.53
N6310 X74.197 Y257.259
N6315 X73.798 Y257.081
N6320 X73.408 Y256.887 Z0.529
N6325 X73.026 Y256.676
N6330 X72.656 Y256.45
N6335 X72.298 Y256.211 Z0.528
N6340 X71.949 Y255.957
N6345 X71.612 Y255.688 Z0.527
N6350 X71.287 Y255.407
N6355 X70.973 Y255.111
N6360 X70.671 Y254.804 Z0.526
N6365 X70.383 Y254.484
N6370 X70.108 Y254.153 Z0.525
N6375 X69.847 Y253.812
N6380 X69.601 Y253.46
N6385 X69.368 Y253.098 Z0.524
N6390 X69.151 Y252.726
N6395 X68.95 Y252.346
N6400 X68.764 Y251.957 Z0.523
N6405 X68.593 Y251.56
N6410 X68.44 Y251.156 Z0.522
N6415 X68.303 Y250.744
N6420 X68.183 Y250.327
N6425 X68.081 Y249.904 Z0.521
N6430 X67.996 Y249.474
N6435 X67.93 Y249.039
N6440 X67.882 Y248.6 Z0.52
N6445 X67.853 Y248.156
N6450 X67.843 Y247.674 Z0.519
N6455 Y200.129 Z0.478
N6460 X67.853 Y199.641 Z0.477
N6465 X67.883 Y199.191
N6470 X67.932 Y198.746 Z0.476
N6475 X68 Y198.306
N6480 X68.087 Y197.871
N6485 X68.192 Y197.443 Z0.475
N6490 X68.315 Y197.021
N6495 X68.455 Y196.604 Z0.474
N6500 X68.612 Y196.197
N6505 X68.786 Y195.796
N6510 X68.977 Y195.403 Z0.473
N6515 X69.184 Y195.02
N6520 X69.407 Y194.644 Z0.472
N6525 X69.645 Y194.279
N6530 X69.896 Y193.925
N6535 X70.163 Y193.582 Z0.471
N6540 X70.444 Y193.25
N6545 X70.738 Y192.93
N6550 X71.047 Y192.621 Z0.47
N6555 X71.368 Y192.325
N6560 X71.7 Y192.044 Z0.469
N6565 X72.044 Y191.776
N6570 X72.4 Y191.522
N6575 X72.766 Y191.284 Z0.468
N6580 X73.145 Y191.06
N6585 X73.533 Y190.852 Z0.467
N6590 X73.929 Y190.661
N6595 X74.337 Y190.486
N6600 X74.754 Y190.328 Z0.466
N6605 X75.18 Y190.187
N6610 X75.611 Y190.066
N6615 X76.087 Y189.954 Z0.465
N6620 X125.549 Y179.47 Z0.421
N6625 X125.724 Y179.427 Z0.42
N6630 X126.261 Y179.279
N6635 X126.438 Y179.224
N6640 X126.612 Y179.159
N6645 X127.119 Y178.949 Z0.419
N6650 X127.287 Y178.873
N6655 X127.449 Y178.787
N6660 X127.924 Y178.518 Z0.418
N6665 X128.079 Y178.424
N6670 X128.228 Y178.321
N6675 X128.664 Y177.999
N6680 X128.808 Y177.886 Z0.417
N6685 X128.944 Y177.765
N6690 X129.338 Y177.392
N6695 X129.465 Y177.264
N6700 X129.584 Y177.13 Z0.416
N6705 X129.932 Y176.711
N6710 X130.046 Y176.564
N6715 X130.152 Y176.41
N6720 X130.448 Y175.947 Z0.415
N6725 X130.541 Y175.791
N6730 X130.624 Y175.629
N6735 X130.865 Y175.127 Z0.414
N6740 X130.94 Y174.959
N6745 X147.816 Y133.443 Z0.375
N6750 X147.88 Y133.27
N6755 X148.058 Y132.741 Z0.374
N6760 X148.111 Y132.565
N6765 X148.154 Y132.387
N6770 X148.265 Y131.846 Z0.373
N6775 X148.296 Y131.663
N6780 X148.317 Y131.479
N6785 X148.36 Y130.934
N6790 X148.369 Y130.75 Z0.372
N6795 X148.366 Y130.566
N6800 X148.342 Y130.022
N6805 X148.329 Y129.842
N6810 X148.305 Y129.663 Z0.371
N6815 X148.216 Y129.126
N6820 X148.18 Y128.946
N6825 X148.133 Y128.768
N6830 X147.978 Y128.243 Z0.37
N6835 X147.921 Y128.07
N6840 X147.854 Y127.9
N6845 X147.635 Y127.394 Z0.369
N6850 X147.555 Y127.225
N6855 X147.465 Y127.061
N6860 X147.181 Y126.58
N6865 X147.085 Y126.427 Z0.368
N6870 X120.156 Y86.503 Z0.326
N6875 X119.888 Y86.084
N6880 X119.658 Y85.688 Z0.325
N6885 X119.446 Y85.281
N6890 X119.253 Y84.87 Z0.324
N6895 X119.082 Y84.456
N6900 X118.928 Y84.032
N6905 X118.793 Y83.604 Z0.323
N6910 X118.678 Y83.172
N6915 X118.581 Y82.736 Z0.322
N6920 X118.503 Y82.298
N6925 X118.444 Y81.858
N6930 X118.405 Y81.417 Z0.321
N6935 X118.384 Y80.972
N6940 X118.381 Y80.528
N6945 X118.398 Y80.087 Z0.32
N6950 X118.433 Y79.645
N6955 X118.487 Y79.203 Z0.319
N6960 X118.56 Y78.764
N6965 X118.65 Y78.332
N6970 X118.759 Y77.901 Z0.318
N6975 X118.886 Y77.475
N6980 X119.031 Y77.058 Z0.317
N6985 X119.195 Y76.642
N6990 X119.377 Y76.234
N6995 X119.577 Y75.833 Z0.316
N7000 X119.793 Y75.443
N7005 X120.027 Y75.061 Z0.315
N7010 X120.281 Y74.685
N7015 X120.551 Y74.32
N7020 X120.838 Y73.966 Z0.314
N7025 X121.143 Y73.623
N7030 X121.491 Y73.267 Z0.313
N7035 X156.974 Y38.416 Z0.27
N7040 X157.327 Y38.084 Z0.269
N7045 X157.667 Y37.791
N7050 X158.017 Y37.515 Z0.268
N7055 X158.376 Y37.257
N7060 X158.744 Y37.015
N7065 X159.12 Y36.791 Z0.267
N7070 X159.505 Y36.583
N7075 X159.897 Y36.392
N7080 X160.295 Y36.218 Z0.266
N7085 X160.702 Y36.061
N7090 X161.113 Y35.922 Z0.265
N7095 X161.528 Y35.8
N7100 X161.95 Y35.695
N7105 X162.373 Y35.608 Z0.264
N7110 X162.801 Y35.539
N7115 X163.23 Y35.487 Z0.263
N7120 X163.662 Y35.453
N7125 X164.094 Y35.437
N7130 X164.527 Y35.438 Z0.262
N7135 X164.96 Y35.458
N7140 X165.392 Y35.495
N7145 X165.821 Y35.55 Z0.261
N7150 X166.25 Y35.624
N7155 X166.675 Y35.715 Z0.26
N7160 X167.097 Y35.825
N7165 X167.516 Y35.953
N7170 X167.929 Y36.099 Z0.259
N7175 X168.338 Y36.263
N7180 X168.742 Y36.445
N7185 X169.138 Y36.646 Z0.258
N7190 X169.53 Y36.866
N7195 X169.942 Y37.122 Z0.257
N7200 X209.833 Y63.124 Z0.215
N7205 X209.995 Y63.223
N7210 X210.495 Y63.505
N7215 X210.663 Y63.593
N7220 X210.835 Y63.67 Z0.214
N7225 X211.359 Y63.884
N7230 X211.536 Y63.95
N7235 X211.716 Y64.005
N7240 X212.258 Y64.151 Z0.213
N7245 X212.44 Y64.194
N7250 X212.625 Y64.225
N7255 X213.178 Y64.302 Z0.212
N7260 X213.365 Y64.322
N7265 X213.552 Y64.33
N7270 X214.111 Y64.337 Z0.211
N7275 X214.299 Y64.334
N7280 X214.486 Y64.318
N7285 X215.043 Y64.255
N7290 X215.229 Y64.228 Z0.21
N7295 X215.413 Y64.19
N7300 X215.964 Y64.056
N7305 X216.147 Y64.006
N7310 X216.327 Y63.943 Z0.209
N7315 X216.863 Y63.739
N7320 X217.037 Y63.666
N7325 X229.875 Y57.815 Z0.196
N7330 X230.383 Y57.599
N7335 X230.86 Y57.423 Z0.195
N7340 X231.341 Y57.273
N7345 X231.825 Y57.147
N7350 X232.312 Y57.046 Z0.194
N7355 X232.801 Y56.969
N7360 X233.291 Y56.916 Z0.193
N7365 X233.782 Y56.887
N7370 X234.272 Y56.881 Z0.192
N7375 X234.762 Y56.898
N7380 X235.248 Y56.938
N7385 X235.734 Y57.001 Z0.191
N7390 X236.214 Y57.086
N7395 X236.691 Y57.194 Z0.19
N7400 X237.161 Y57.323
N7405 X237.626 Y57.474 Z0.189
N7410 X238.082 Y57.646
N7415 X238.531 Y57.84
N7420 X238.97 Y58.053 Z0.188
N7425 X239.398 Y58.287
N7430 X239.817 Y58.541 Z0.187
N7435 X240.222 Y58.814
N7440 X240.615 Y59.106 Z0.186
N7445 X240.995 Y59.417
N7450 X241.359 Y59.746
N7455 X241.709 Y60.094 Z0.185
N7460 X242.043 Y60.46
N7465 X242.36 Y60.842 Z0.184
N7470 X242.66 Y61.243
N7475 X242.942 Y61.661 Z0.183
N7480 X243.205 Y62.096
N7485 X243.467 Y62.583 Z0.182
N7490 X251.891 Y79.225 Z0.166
N7495 X251.917 Y79.274
N7500 X251.978 Y79.407
N7505 X252.026 Y79.545
N7510 X252.06 Y79.688
N7515 X252.079 Y79.834 Z0.165
N7520 X252.082 Y79.981
N7525 X252.071 Y80.127
N7530 X252.045 Y80.271
N7535 X252.004 Y80.412
N7540 X251.949 Y80.548
N7545 X251.88 Y80.678
N7550 X251.799 Y80.8
N7555 X251.705 Y80.913 Z0.164
N7560 X251.6 Y81.016
N7565 X251.486 Y81.107
N7570 X251.362 Y81.187
N7575 X251.231 Y81.253
N7580 X251.094 Y81.306
N7585 X250.952 Y81.344
N7590 X250.807 Y81.367
N7595 X250.661 Y81.376 Z0.163
N7600 X250.514 Y81.37
N7605 X250.369 Y81.348
N7610 X250.227 Y81.312
N7615 X250.089 Y81.261
N7620 X249.957 Y81.197
N7625 X249.832 Y81.119
N7630 X249.716 Y81.03
N7635 X249.61 Y80.928 Z0.162
N7640 X249.515 Y80.817
N7645 X249.432 Y80.696
N7650 X249.361 Y80.567
N7655 X249.337 Y80.518
N7660 X240.895 Y63.842 Z0.146
N7665 X240.829 Y63.719 Z0.145
N7670 X240.605 Y63.323
N7675 X240.531 Y63.2
N7680 X240.452 Y63.08
N7685 X240.197 Y62.716 Z0.144
N7690 X240.11 Y62.599
N7695 X240.018 Y62.486
N7700 X239.734 Y62.154
N7705 X239.64 Y62.048
N7710 X239.54 Y61.948 Z0.143
N7715 X239.231 Y61.649
N7720 X239.126 Y61.552
N7725 X239.016 Y61.46
N7730 X238.684 Y61.195 Z0.142
N7735 X238.569 Y61.108
N7740 X238.45 Y61.026
N7745 X238.097 Y60.797
N7750 X237.973 Y60.721
N7755 X237.847 Y60.651
N7760 X237.475 Y60.457 Z0.141
N7765 X237.347 Y60.394
N7770 X237.217 Y60.338
N7775 X236.83 Y60.181
N7780 X236.696 Y60.13 Z0.14
N7785 X236.559 Y60.086
N7790 X236.159 Y59.967
N7795 X236.021 Y59.929
N7800 X235.881 Y59.898
N7805 X235.47 Y59.817 Z0.139
N7810 X235.328 Y59.793
N7815 X235.185 Y59.775
N7820 X234.765 Y59.734
N7825 X234.622 Y59.723
N7830 X234.479 Y59.719 Z0.138
N7835 X234.054 Y59.718
N7840 X233.91 Y59.721
N7845 X233.766 Y59.731
N7850 X233.338 Y59.771 Z0.137
N7855 X233.195 Y59.788
N7860 X233.052 Y59.812
N7865 X232.624 Y59.894
N7870 X232.485 Y59.925
N7875 X232.347 Y59.962
N7880 X231.92 Y60.087 Z0.136
N7885 X231.784 Y60.13
N7890 X231.651 Y60.18
N7895 X231.228 Y60.348
N7900 X231.096 Y60.405 Z0.135
N7905 X218.267 Y66.251 Z0.123
N7910 X217.612 Y66.525 Z0.122
N7915 X216.992 Y66.738
N7920 X216.363 Y66.911 Z0.121
N7925 X215.726 Y67.044
N7930 X215.085 Y67.136 Z0.12
N7935 X214.441 Y67.188
N7940 X213.795 Y67.199 Z0.119
N7945 X213.15 Y67.171 Z0.118
N7950 X212.509 Y67.103
N7955 X211.872 Y66.994 Z0.117
N7960 X211.243 Y66.847
N7965 X210.623 Y66.66 Z0.116
N7970 X210.014 Y66.434
N7975 X209.417 Y66.168 Z0.115
N7980 X208.837 Y65.865 Z0.114
N7985 X208.23 Y65.496
N7990 X168.35 Y39.504 Z0.072
N7995 X168.243 Y39.437
N8000 X167.902 Y39.235
N8005 X167.791 Y39.172 Z0.071
N8010 X167.678 Y39.114
N8015 X167.327 Y38.944
N8020 X167.212 Y38.892
N8025 X167.094 Y38.844
N8030 X166.735 Y38.706 Z0.07
N8035 X166.616 Y38.663
N8040 X166.494 Y38.625
N8045 X166.129 Y38.519
N8050 X166.006 Y38.487
N8055 X165.881 Y38.459
N8060 X165.511 Y38.386 Z0.069
N8065 X165.387 Y38.363
N8070 X165.261 Y38.347
N8075 X164.889 Y38.305
N8080 X164.763 Y38.293
N8085 X164.636 Y38.287 Z0.068
N8090 X164.263 Y38.277
N8095 X164.137 Y38.276
N8100 X164.01 Y38.281
N8105 X163.638 Y38.302
N8110 X163.512 Y38.312
N8115 X163.387 Y38.327 Z0.067
N8120 X163.019 Y38.379
N8125 X162.894 Y38.4
N8130 X162.77 Y38.425
N8135 X162.406 Y38.509
N8140 X162.283 Y38.54 Z0.066
N8145 X162.161 Y38.576
N8150 X161.805 Y38.69
N8155 X161.685 Y38.732
N8160 X161.567 Y38.778
N8165 X161.219 Y38.923 Z0.065
N8170 X161.102 Y38.974
N8175 X160.988 Y39.031
N8180 X160.651 Y39.206
N8185 X160.54 Y39.267
N8190 X160.432 Y39.333
N8195 X160.107 Y39.538 Z0.064
N8200 X160.001 Y39.608
N8205 X159.898 Y39.683
N8210 X159.587 Y39.918
N8215 X159.488 Y39.997
N8220 X159.392 Y40.08
N8225 X159.097 Y40.346 Z0.063
N8230 X159.003 Y40.435
N8235 X123.474 Y75.332 Z0.019
N8240 X123.386 Y75.421
N8245 X123.107 Y75.719
N8250 X123.019 Y75.818
N8255 X122.935 Y75.92
N8260 X122.688 Y76.235 Z0.018
N8265 X122.609 Y76.341
N8270 X122.535 Y76.45
N8275 X122.32 Y76.78
N8280 X122.251 Y76.892
N8285 X122.187 Y77.007 Z0.017
N8290 X122.004 Y77.35
N8295 X121.946 Y77.464
N8300 X121.894 Y77.579
N8305 X121.742 Y77.935
N8310 X121.694 Y78.055 Z0.016
N8315 X121.65 Y78.177
N8320 X121.53 Y78.541
N8325 X121.492 Y78.668
N8330 X121.459 Y78.796
N8335 X121.372 Y79.168 Z0.015
N8340 X121.345 Y79.296
N8345 X121.323 Y79.426
N8350 X121.269 Y79.803
N8355 X121.254 Y79.929
N8360 X121.244 Y80.055
N8365 X121.222 Y80.436 Z0.014
N8370 X121.217 Y80.565
N8375 X121.218 Y80.695
N8380 X121.229 Y81.077
N8385 X121.236 Y81.206
N8390 X121.248 Y81.335 Z0.013
N8395 X121.292 Y81.716
N8400 X121.31 Y81.847
N8405 X121.334 Y81.977
N8410 X121.412 Y82.356
N8415 X121.44 Y82.481 Z0.012
N8420 X121.474 Y82.604
N8425 X121.585 Y82.978
N8430 X121.625 Y83.103
N8435 X121.671 Y83.226
N8440 X121.816 Y83.593 Z0.011
N8445 X121.867 Y83.713
N8450 X121.922 Y83.832
N8455 X122.101 Y84.19
N8460 X122.164 Y84.307
N8465 X122.231 Y84.422
N8470 X122.445 Y84.77 Z0.01
N8475 X122.512 Y84.874
N8480 X149.433 Y124.787 Z-0.032
N8485 X149.801 Y125.372 Z-0.033
N8490 X150.108 Y125.932
N8495 X150.377 Y126.508 Z-0.034
N8500 X150.611 Y127.097
N8505 X150.807 Y127.697 Z-0.035
N8510 X150.966 Y128.307 Z-0.036
N8515 X151.088 Y128.925
N8520 X151.172 Y129.548 Z-0.037
N8525 X151.219 Y130.177
N8530 X151.227 Y130.804 Z-0.038
N8535 X151.197 Y131.434
N8540 X151.129 Y132.062 Z-0.039
N8545 X151.022 Y132.685
N8550 X150.876 Y133.305 Z-0.04
N8555 X150.692 Y133.917 Z-0.041
N8560 X150.451 Y134.564
N8565 X133.61 Y175.996 Z-0.08
N8570 X133.332 Y176.625 Z-0.081
N8575 X133.039 Y177.188 Z-0.082
N8580 X132.712 Y177.732
N8585 X132.355 Y178.253 Z-0.083
N8590 X131.968 Y178.749
N8595 X131.552 Y179.219 Z-0.084
N8600 X131.109 Y179.664
N8605 X130.642 Y180.08 Z-0.085
N8610 X130.15 Y180.466 Z-0.086
N8615 X129.634 Y180.824
N8620 X129.097 Y181.151 Z-0.087
N8625 X128.542 Y181.443
N8630 X127.965 Y181.704 Z-0.088
N8635 X127.373 Y181.929
N8640 X126.767 Y182.117 Z-0.089
N8645 X126.098 Y182.281
N8650 X76.648 Y192.76 Z-0.134
N8655 X76.526 Y192.789
N8660 X76.139 Y192.888
N8665 X76.014 Y192.923
N8670 X75.89 Y192.963 Z-0.135
N8675 X75.52 Y193.093
N8680 X75.402 Y193.137
N8685 X75.287 Y193.186
N8690 X74.934 Y193.344
N8695 X74.816 Y193.4 Z-0.136
N8700 X74.701 Y193.46
N8705 X74.367 Y193.646
N8710 X74.257 Y193.711
N8715 X74.149 Y193.78
N8720 X73.834 Y193.992 Z-0.137
N8725 X73.731 Y194.065
N8730 X73.631 Y194.143
N8735 X73.337 Y194.379
N8740 X73.24 Y194.461
N8745 X73.146 Y194.546
N8750 X72.875 Y194.805 Z-0.138
N8755 X72.783 Y194.897
N8760 X72.696 Y194.992
N8765 X72.448 Y195.273
N8770 X72.366 Y195.37
N8775 X72.289 Y195.47
N8780 X72.066 Y195.771 Z-0.139
N8785 X71.993 Y195.874
N8790 X71.924 Y195.98
N8795 X71.727 Y196.299
N8800 X71.662 Y196.408
N8805 X71.602 Y196.521 Z-0.14
N8810 X71.432 Y196.857
N8815 X71.377 Y196.972
N8820 X71.327 Y197.088
N8825 X71.185 Y197.439
N8830 X71.14 Y197.56 Z-0.141
N8835 X71.099 Y197.682
N8840 X70.987 Y198.048
N8845 X70.952 Y198.171
N8850 X70.922 Y198.294
N8855 X70.841 Y198.672 Z-0.142
N8860 X70.816 Y198.799
N8865 X70.797 Y198.926
N8870 X70.747 Y199.316
N8875 X70.734 Y199.443
N8880 X70.725 Y199.57
N8885 X70.709 Y199.969 Z-0.143
N8890 X70.706 Y200.096
N8895 Y247.707 Z-0.185
N8900 X70.709 Y247.833
N8905 X70.725 Y248.226
N8910 X70.733 Y248.352
N8915 X70.746 Y248.478
N8920 X70.795 Y248.862 Z-0.186
N8925 X70.814 Y248.987
N8930 X70.837 Y249.11
N8935 X70.917 Y249.484
N8940 X70.946 Y249.607
N8945 X70.98 Y249.729
N8950 X71.09 Y250.091 Z-0.187
N8955 X71.129 Y250.211
N8960 X71.173 Y250.329
N8965 X71.312 Y250.677
N8970 X71.361 Y250.794
N8975 X71.415 Y250.908 Z-0.188
N8980 X71.582 Y251.241
N8985 X71.641 Y251.353
N8990 X71.704 Y251.463
N8995 X71.897 Y251.779
N9000 X71.964 Y251.883 Z-0.189
N9005 X72.035 Y251.985
N9010 X72.253 Y252.284
N9015 X72.33 Y252.385
N9020 X72.411 Y252.483
N9025 X72.654 Y252.762 Z-0.19
N9030 X72.737 Y252.854
N9035 X72.823 Y252.942
N9040 X73.089 Y253.201
N9045 X73.183 Y253.289
N9050 X73.28 Y253.372
N9055 X73.568 Y253.608 Z-0.191
N9060 X73.665 Y253.685
N9065 X73.765 Y253.758
N9070 X74.074 Y253.971
N9075 X74.179 Y254.04
N9080 X74.287 Y254.105
N9085 X74.614 Y254.293 Z-0.192
N9090 X74.724 Y254.353
N9095 X74.836 Y254.408
N9100 X75.182 Y254.57
N9105 X75.302 Y254.623
N9110 X75.423 Y254.67 Z-0.193
N9115 X75.787 Y254.803
N9120 X75.905 Y254.844
N9125 X76.025 Y254.879
N9130 X76.405 Y254.983
N9135 X76.526 Y255.014 Z-0.194
N9140 X129.573 Y267.195 Z-0.241
N9145 X130.224 Y267.365 Z-0.242
N9150 X130.816 Y267.559 Z-0.243
N9155 X131.394 Y267.788
N9160 X131.954 Y268.05 Z-0.244
N9165 X132.497 Y268.344
N9170 X133.019 Y268.668 Z-0.245
N9175 X133.521 Y269.023
N9180 X134.001 Y269.406 Z-0.246
N9185 X134.457 Y269.816
N9190 X134.889 Y270.255 Z-0.247
N9195 X135.295 Y270.717
N9200 X135.671 Y271.202 Z-0.248
N9205 X136.02 Y271.713
N9210 X136.34 Y272.247 Z-0.249
N9215 X136.628 Y272.8 Z-0.25
N9220 X136.902 Y273.415
N9225 X152.185 Y310.703 Z-0.286
N9230 X152.428 Y311.353
N9235 X152.615 Y311.967 Z-0.287
N9240 X152.763 Y312.588
N9245 X152.871 Y313.214 Z-0.288
N9250 X152.941 Y313.845
N9255 X152.973 Y314.476 Z-0.289
N9260 X152.965 Y315.107 Z-0.29
N9265 X152.92 Y315.738
N9270 X152.837 Y316.362 Z-0.291
N9275 X152.715 Y316.983
N9280 X152.555 Y317.597 Z-0.292
N9285 X152.359 Y318.198
N9290 X152.126 Y318.787 Z-0.293
N9295 X151.854 Y319.367
N9300 X151.546 Y319.93 Z-0.294
N9305 X151.177 Y320.515 Z-0.295
N9310 X122.588 Y362.833 Z-0.34
N9315 X122.519 Y362.941
N9320 X122.305 Y363.289
N9325 X122.238 Y363.402
N9330 X122.177 Y363.518
N9335 X121.998 Y363.876 Z-0.341
N9340 X121.943 Y363.992
N9345 X121.893 Y364.109
N9350 X121.747 Y364.476
N9355 X121.701 Y364.602
N9360 X121.66 Y364.729
N9365 X121.549 Y365.102 Z-0.342
N9370 X121.514 Y365.227
N9375 X121.486 Y365.353
N9380 X121.408 Y365.732
N9385 X121.384 Y365.862
N9390 X121.366 Y365.993 Z-0.343
N9395 X121.322 Y366.374
N9400 X121.31 Y366.499
N9405 X121.303 Y366.624
N9410 X121.291 Y367.006
N9415 X121.29 Y367.14 Z-0.344
N9420 X121.295 Y367.273
N9425 X121.317 Y367.653
N9430 X121.327 Y367.779
N9435 X121.342 Y367.904
N9440 X121.396 Y368.282 Z-0.345
N9445 X121.418 Y368.412
N9450 X121.445 Y368.541
N9455 X121.532 Y368.913
N9460 X121.565 Y369.042
N9465 X121.604 Y369.169
N9470 X121.724 Y369.533 Z-0.346
N9475 X121.765 Y369.65
N9480 X121.811 Y369.765
N9485 X121.962 Y370.121
N9490 X122.018 Y370.245
N9495 X122.079 Y370.365
N9500 X122.263 Y370.709 Z-0.347
N9505 X122.325 Y370.82
N9510 X122.392 Y370.928
N9515 X122.607 Y371.259
N9520 X122.682 Y371.369
N9525 X122.762 Y371.476 Z-0.348
N9530 X123.009 Y371.791
N9535 X123.092 Y371.893
N9540 X123.18 Y371.99
N9545 X123.459 Y372.288 Z-0.349
N9550 X123.546 Y372.378
N9555 X159.124 Y407.337 Z-0.393
N9560 X159.216 Y407.423
N9565 X159.506 Y407.685
N9570 X159.599 Y407.765
N9575 X159.695 Y407.842
N9580 X160.001 Y408.076 Z-0.394
N9585 X160.106 Y408.153
N9590 X160.214 Y408.225
N9595 X160.535 Y408.429
N9600 X160.642 Y408.494
N9605 X160.751 Y408.554
N9610 X161.083 Y408.728 Z-0.395
N9615 X161.195 Y408.784
N9620 X161.308 Y408.834
N9625 X161.651 Y408.979
N9630 X161.768 Y409.026
N9635 X161.887 Y409.068
N9640 X162.239 Y409.183 Z-0.396
N9645 X162.359 Y409.219
N9650 X162.48 Y409.25
N9655 X162.839 Y409.335
N9660 X162.96 Y409.361
N9665 X163.082 Y409.382
N9670 X163.446 Y409.437 Z-0.397
N9675 X163.572 Y409.454
N9680 X163.698 Y409.465
N9685 X164.065 Y409.489
N9690 X164.187 Y409.494
N9695 X164.31 Y409.495 Z-0.398
N9700 X164.679 Y409.489
N9705 X164.805 Y409.484
N9710 X164.93 Y409.474
N9715 X165.298 Y409.437
N9720 X165.422 Y409.422 Z-0.399
N9725 X165.546 Y409.402
N9730 X165.912 Y409.334
N9735 X166.038 Y409.307
N9740 X166.163 Y409.276
N9745 X166.525 Y409.176 Z-0.4
N9750 X166.639 Y409.142
N9755 X166.753 Y409.103
N9760 X167.109 Y408.973
N9765 X167.232 Y408.925
N9770 X167.353 Y408.872
N9775 X167.702 Y408.709 Z-0.401
N9780 X167.811 Y408.655
N9785 X167.919 Y408.597
N9790 X168.259 Y408.403
N9795 X168.368 Y408.337
N9800 X215.216 Y378.907 Z-0.45
N9805 X215.788 Y378.571 Z-0.451
N9810 X216.338 Y378.291
N9815 X216.9 Y378.045 Z-0.452
N9820 X217.47 Y377.835
N9825 X218.053 Y377.659 Z-0.453
N9830 X218.645 Y377.518
N9835 X219.243 Y377.411 Z-0.454
N9840 X219.844 Y377.339
N9845 X220.448 Y377.303 Z-0.455
N9850 X221.056 Y377.302
N9855 X221.662 Y377.336 Z-0.456
N9860 X222.267 Y377.407
N9865 X222.868 Y377.512 Z-0.457
N9870 X223.462 Y377.654
N9875 X224.051 Y377.832 Z-0.458
N9880 X224.677 Y378.062 Z-0.459
N9885 X259.057 Y391.908 Z-0.491
N9890 X259.689 Y392.185 Z-0.492
N9895 X260.252 Y392.475
N9900 X260.796 Y392.798 Z-0.493
N9905 X261.318 Y393.155
N9910 X261.815 Y393.539 Z-0.494
N9915 X262.286 Y393.952 Z-0.495
N9920 X262.732 Y394.394
N9925 X263.15 Y394.86 Z-0.496
N9930 X263.539 Y395.351
N9935 X263.899 Y395.865 Z-0.497
N9940 X264.226 Y396.399
N9945 X264.52 Y396.954 Z-0.498
N9950 X264.783 Y397.528
N9955 X265.01 Y398.119 Z-0.499
N9960 X265.201 Y398.727 Z-0.5
N9965 X265.367 Y399.394
N9970 X276.677 Y451.8 Z-0.547
N9975 X276.705 Y451.921
N9980 X276.804 Y452.302 Z-0.548
N9985 X276.839 Y452.426
N9990 X276.879 Y452.548
N9995 X277.008 Y452.913
N10000 X277.053 Y453.031
N10005 X277.102 Y453.147 Z-0.549
N10010 X277.259 Y453.495
N10015 X277.313 Y453.606
N10020 X277.37 Y453.716
N10025 X277.553 Y454.046
N10030 X277.618 Y454.157
N10035 X277.687 Y454.264 Z-0.55
N10040 X277.896 Y454.575
N10045 X277.968 Y454.677
N10050 X278.043 Y454.776
N10055 X278.275 Y455.066
N10060 X278.356 Y455.163 Z-0.551
N10065 X278.441 Y455.256
N10070 X278.696 Y455.525
N10075 X278.784 Y455.615
N10080 X278.877 Y455.701
N10085 X279.153 Y455.947 Z-0.552
N10090 X279.249 Y456.029
N10095 X279.349 Y456.107
N10100 X279.645 Y456.329
N10105 X279.745 Y456.401
N10110 X279.847 Y456.468
N10115 X280.16 Y456.665 Z-0.553
N10120 X280.269 Y456.73
N10125 X280.381 Y456.791
N10130 X280.712 Y456.962
N10135 X280.826 Y457.018
N10140 X280.943 Y457.07
N10145 X281.289 Y457.213 Z-0.554
N10150 X281.404 Y457.257
N10155 X281.52 Y457.297
N10160 X281.879 Y457.412
N10165 X282.002 Y457.449
N10170 X282.127 Y457.48 Z-0.555
N10175 X282.5 Y457.565
N10180 X282.624 Y457.59
N10185 X282.748 Y457.611
N10190 X283.131 Y457.665
N10195 X283.256 Y457.68 Z-0.556
N10200 X283.382 Y457.689
N10205 X283.775 Y457.711
N10210 X283.901 Y457.716
N10215 X335.118 Y458.437 Z-0.601
N10220 X335.242 Y458.436
N10225 X335.642 Y458.425 Z-0.602
N10230 X335.773 Y458.418
N10235 X335.903 Y458.406
N10240 X336.294 Y458.361
N10245 X336.417 Y458.345
N10250 X336.539 Y458.323
N10255 X336.919 Y458.247 Z-0.603
N10260 X337.048 Y458.218
N10265 X337.176 Y458.184
N10270 X337.544 Y458.076
N10275 X337.667 Y458.036
N10280 X337.789 Y457.992 Z-0.604
N10285 X338.143 Y457.854
N10290 X338.255 Y457.808
N10295 X338.366 Y457.756
N10300 X338.705 Y457.591
N10305 X338.824 Y457.53 Z-0.605
N10310 X338.94 Y457.464
N10315 X339.262 Y457.27
N10320 X339.366 Y457.204
N10325 X339.468 Y457.134
N10330 X339.772 Y456.915 Z-0.606
N10335 X339.876 Y456.836
N10340 X339.978 Y456.753
N10345 X340.262 Y456.508
N10350 X340.354 Y456.424
N10355 X340.443 Y456.337
N10360 X340.706 Y456.069 Z-0.607
N10365 X340.795 Y455.975
N10370 X340.879 Y455.877
N10375 X341.119 Y455.586
N10380 X341.201 Y455.482
N10385 X341.278 Y455.376
N10390 X341.493 Y455.063 Z-0.608
N10395 X341.56 Y454.961
N10400 X341.622 Y454.857
N10405 X341.813 Y454.524
N10410 X341.877 Y454.406
N10415 X341.936 Y454.285 Z-0.609
N10420 X342.098 Y453.933
N10425 X342.148 Y453.819
N10430 X342.193 Y453.703
N10435 X342.327 Y453.334
N10440 X342.368 Y453.212 Z-0.61
N10445 X342.404 Y453.089
N10450 X342.508 Y452.702
N10455 X342.539 Y452.578
N10460 X354.42 Y399.433 Z-0.658
N10465 X354.59 Y398.77 Z-0.659
N10470 X354.783 Y398.169
N10475 X355.013 Y397.583 Z-0.66
N10480 X355.275 Y397.014
N10485 X355.571 Y396.466 Z-0.661
N10490 X355.899 Y395.936
N10495 X356.259 Y395.427 Z-0.662
N10500 X356.647 Y394.941
N10505 X357.063 Y394.48 Z-0.663
N10510 X357.506 Y394.044 Z-0.664
N10515 X357.977 Y393.634
N10520 X358.472 Y393.253 Z-0.665
N10525 X358.989 Y392.902
N10530 X359.53 Y392.581 Z-0.666
N10535 X360.094 Y392.291
N10540 X360.718 Y392.017 Z-0.667
N10545 X395.249 Y378.129 Z-0.7
N10550 X395.866 Y377.903
N10555 X396.448 Y377.726 Z-0.701
N10560 X397.036 Y377.586
N10565 X397.631 Y377.479 Z-0.702
N10570 X398.228 Y377.408
N10575 X398.826 Y377.372 Z-0.703
N10580 X399.424 Y377.37
N10585 X400.024 Y377.404 Z-0.704
N10590 X400.62 Y377.47
N10595 X401.209 Y377.572 Z-0.705
N10600 X401.794 Y377.708
N10605 X402.371 Y377.878 Z-0.706
N10610 X402.939 Y378.081 Z-0.707
N10615 X403.497 Y378.318
N10620 X404.041 Y378.588 Z-0.708
N10625 X404.609 Y378.914
N10630 X452.41 Y408.211 Z-0.757
N10635 X452.516 Y408.273 Z-0.758
N10640 X452.86 Y408.465
N10645 X452.975 Y408.526
N10650 X453.093 Y408.582
N10655 X453.447 Y408.741
N10660 X453.563 Y408.79 Z-0.759
N10665 X453.68 Y408.834
N10670 X454.041 Y408.961
N10675 X454.163 Y409.001
N10680 X454.285 Y409.035
N10685 X454.652 Y409.13 Z-0.76
N10690 X454.772 Y409.159
N10695 X454.893 Y409.182
N10700 X455.263 Y409.246
N10705 X455.389 Y409.265
N10710 X455.516 Y409.279
N10715 X455.887 Y409.311 Z-0.761
N10720 X456.016 Y409.319
N10725 X456.145 Y409.322
N10730 X456.517
N10735 X456.639 Y409.32
N10740 X456.76 Y409.312
N10745 X457.129 Y409.282 Z-0.762
N10750 X457.255 Y409.269
N10755 X457.381 Y409.251
N10760 X457.746 Y409.19
N10765 X457.87 Y409.166
N10770 X457.994 Y409.138 Z-0.763
N10775 X458.354 Y409.046
N10780 X458.478 Y409.011
N10785 X458.601 Y408.971
N10790 X458.953 Y408.848
N10795 X459.066 Y408.806 Z-0.764
N10800 X459.178 Y408.759
N10805 X459.521 Y408.607
N10810 X459.639 Y408.552
N10815 X459.754 Y408.491
N10820 X460.086 Y408.308 Z-0.765
N10825 X460.194 Y408.246
N10830 X460.298 Y408.18
N10835 X460.617 Y407.968
N10840 X460.723 Y407.894
N10845 X460.825 Y407.816
N10850 X461.129 Y407.574 Z-0.766
N10855 X461.227 Y407.493
N10860 X461.321 Y407.408
N10865 X461.608 Y407.137
N10870 X461.696 Y407.05
N10875 X496.478 Y371.363 Z-0.81
N10880 X496.568 Y371.266
N10885 X496.833 Y370.969 Z-0.811
N10890 X496.914 Y370.875
N10895 X496.991 Y370.777
N10900 X497.226 Y370.465
N10905 X497.3 Y370.362
N10910 X497.37 Y370.257
N10915 X497.575 Y369.931 Z-0.812
N10920 X497.642 Y369.819
N10925 X497.704 Y369.704
N10930 X497.878 Y369.365
N10935 X497.933 Y369.252
N10940 X497.983 Y369.136
N10945 X498.127 Y368.786 Z-0.813
N10950 X498.173 Y368.668
N10955 X498.214 Y368.548
N10960 X498.327 Y368.19
N10965 X498.362 Y368.069
N10970 X498.393 Y367.946 Z-0.814
N10975 X498.475 Y367.582
N10980 X498.5 Y367.458
N10985 X498.52 Y367.333
N10990 X498.571 Y366.963
N10995 X498.586 Y366.835 Z-0.815
N11000 X498.595 Y366.706
N11005 X498.614 Y366.334
N11010 X498.618 Y366.209
N11015 X498.616 Y366.085
N11020 X498.604 Y365.711 Z-0.816
N11025 X498.598 Y365.583
N11030 X498.585 Y365.456
N11035 X498.541 Y365.083
N11040 X498.524 Y364.956
N11045 X498.501 Y364.83
N11050 X498.425 Y364.46 Z-0.817
N11055 X498.396 Y364.336
N11060 X498.363 Y364.213
N11065 X498.255 Y363.848
N11070 X498.216 Y363.728
N11075 X498.173 Y363.609
N11080 X498.033 Y363.25 Z-0.818
N11085 X497.985 Y363.134
N11090 X497.932 Y363.02
N11095 X497.76 Y362.669
N11100 X497.699 Y362.552
N11105 X497.634 Y362.438 Z-0.819
N11110 X497.428 Y362.097
N11115 X497.362 Y361.993
N11120 X468.524 Y318.404 Z-0.865
N11125 X468.147 Y317.793 Z-0.866
N11130 X467.837 Y317.207
N11135 X467.565 Y316.604 Z-0.867
N11140 X467.333 Y315.988
N11145 X467.142 Y315.363 Z-0.868
N11150 X466.992 Y314.726 Z-0.869
N11155 X466.881 Y314.081
N11160 X466.811 Y313.432 Z-0.87
N11165 X466.781 Y312.782
N11170 X466.794 Y312.129 Z-0.871
N11175 X466.847 Y311.475
N11180 X466.94 Y310.827 Z-0.872
N11185 X467.076 Y310.184 Z-0.873
N11190 X467.253 Y309.547
N11195 X467.47 Y308.922 Z-0.874
N11200 X467.751 Y308.261
N11205 X484.63 Y271.693 Z-0.91
N11210 X484.923 Y271.106
N11215 X485.224 Y270.581 Z-0.911
N11220 X485.555 Y270.075
N11225 X485.912 Y269.592 Z-0.912
N11230 X486.296 Y269.132
N11235 X486.707 Y268.694 Z-0.913
N11240 X487.139 Y268.283
N11245 X487.594 Y267.899 Z-0.914
N11250 X488.073 Y267.538 Z-0.915
N11255 X488.571 Y267.207
N11260 X489.086 Y266.905 Z-0.916
N11265 X489.62 Y266.633
N11270 X490.171 Y266.391 Z-0.917
N11275 X490.736 Y266.181
N11280 X491.318 Y266.003 Z-0.918
N11285 X491.954 Y265.849
N11290 X543.052 Y255.035 Z-0.964
N11295 X543.176 Y255.006
N11300 X543.566 Y254.906 Z-0.965
N11305 X543.691 Y254.871
N11310 X543.815 Y254.831
N11315 X544.188 Y254.7
N11320 X544.308 Y254.654
N11325 X544.427 Y254.604
N11330 X544.782 Y254.444 Z-0.966
N11335 X544.897 Y254.389
N11340 X545.011 Y254.329
N11345 X545.348 Y254.141
N11350 X545.457 Y254.077
N11355 X545.563 Y254.009 Z-0.967
N11360 X545.879 Y253.796
N11365 X545.986 Y253.72
N11370 X546.091 Y253.639
N11375 X546.385 Y253.4
N11380 X546.484 Y253.317 Z-0.968
N11385 X546.578 Y253.23
N11390 X546.85 Y252.968
N11395 X546.94 Y252.878
N11400 X547.025 Y252.784
N11405 X547.273 Y252.501 Z-0.969
N11410 X547.357 Y252.402
N11415 X547.436 Y252.298
N11420 X547.659 Y251.994
N11425 X547.731 Y251.891
N11430 X547.799 Y251.786
N11435 X547.996 Y251.464 Z-0.97
N11440 X548.061 Y251.351
N11445 X548.122 Y251.236
N11450 X548.291 Y250.897
N11455 X548.345 Y250.783
N11460 X548.394 Y250.666
N11465 X548.535 Y250.311 Z-0.971
N11470 X548.581 Y250.187
N11475 X548.622 Y250.061
N11480 X548.732 Y249.692
N11485 X548.765 Y249.572 Z-0.972
N11490 X548.793 Y249.45
N11495 X548.873 Y249.068
N11500 X548.897 Y248.939
N11505 X548.916 Y248.81
N11510 X548.963 Y248.418 Z-0.973
N11515 X548.975 Y248.288
N11520 X548.982 Y248.158
N11525 X548.995 Y247.756
N11530 X548.997 Y247.631
N11535 X548.553 Y199.296 Z-1.016
N11540 X548.549 Y199.167
N11545 X548.528 Y198.767
N11550 X548.518 Y198.639
N11555 X548.504 Y198.513
N11560 X548.45 Y198.123 Z-1.017
N11565 X548.43 Y197.999
N11570 X548.405 Y197.876
N11575 X548.32 Y197.498
N11580 X548.288 Y197.368
N11585 X548.25 Y197.24 Z-1.018
N11590 X548.133 Y196.875
N11595 X548.092 Y196.756
N11600 X548.046 Y196.639
N11605 X547.9 Y196.288
N11610 X547.849 Y196.171 Z-1.019
N11615 X547.792 Y196.057
N11620 X547.618 Y195.722
N11625 X547.557 Y195.611
N11630 X547.492 Y195.502
N11635 X547.291 Y195.184 Z-1.02
N11640 X547.219 Y195.075
N11645 X547.141 Y194.969
N11650 X546.914 Y194.671
N11655 X546.836 Y194.573
N11660 X546.754 Y194.478
N11665 X546.502 Y194.199 Z-1.021
N11670 X546.415 Y194.107
N11675 X546.324 Y194.018
N11680 X546.05 Y193.762
N11685 X545.954 Y193.676
N11690 X545.854 Y193.594
N11695 X545.557 Y193.361 Z-1.022
N11700 X545.456 Y193.285
N11705 X545.353 Y193.214
N11710 X545.035 Y193.005
N11715 X544.923 Y192.935
N11720 X544.809 Y192.871 Z-1.023
N11725 X544.471 Y192.689
N11730 X544.357 Y192.63
N11735 X544.24 Y192.577
N11740 X543.884 Y192.423
N11745 X543.766 Y192.375 Z-1.024
N11750 X543.646 Y192.331
N11755 X543.273 Y192.206
N11760 X543.153 Y192.169
N11765 X543.032 Y192.137
N11770 X542.643 Y192.042 Z-1.025
N11775 X542.515 Y192.013
N11780 X493.796 Y182.348 Z-1.068
N11785 X493.117 Y182.19 Z-1.069
N11790 X492.498 Y182.006 Z-1.07
N11795 X491.895 Y181.784
N11800 X491.311 Y181.527 Z-1.071
N11805 X490.744 Y181.235
N11810 X490.197 Y180.909 Z-1.072
N11815 X489.672 Y180.551
N11820 X489.172 Y180.162 Z-1.073
N11825 X488.694 Y179.742
N11830 X488.243 Y179.295 Z-1.074
N11835 X487.821 Y178.821 Z-1.075
N11840 X487.427 Y178.319
N11845 X487.063 Y177.793 Z-1.076
N11850 X486.731 Y177.243
N11855 X486.433 Y176.67 Z-1.077
N11860 X486.15 Y176.033
N11865 X469.331 Y134.662 Z-1.117
N11870 X469.091 Y134.015
N11875 X468.906 Y133.403 Z-1.118
N11880 X468.76 Y132.782
N11885 X468.653 Y132.157 Z-1.119
N11890 X468.584 Y131.531 Z-1.12
N11895 X468.555 Y130.901
N11900 X468.563 Y130.271 Z-1.121
N11905 X468.609 Y129.644
N11910 X468.693 Y129.019 Z-1.122
N11915 X468.815 Y128.402
N11920 X468.974 Y127.792 Z-1.123
N11925 X469.17 Y127.191
N11930 X469.403 Y126.603 Z-1.124
N11935 X469.673 Y126.028 Z-1.125
N11940 X469.981 Y125.466
N11945 X470.349 Y124.881 Z-1.126
N11950 X497.284 Y84.974 Z-1.168
N11955 X497.355 Y84.864
N11960 X497.568 Y84.517
N11965 X497.633 Y84.405 Z-1.169
N11970 X497.693 Y84.29
N11975 X497.872 Y83.932
N11980 X497.928 Y83.814
N11985 X497.979 Y83.694
N11990 X498.124 Y83.327 Z-1.17
N11995 X498.17 Y83.204
N12000 X498.21 Y83.079
N12005 X498.321 Y82.705
N12010 X498.355 Y82.581
N12015 X498.383 Y82.457
N12020 X498.461 Y82.078 Z-1.171
N12025 X498.485 Y81.948
N12030 X498.503 Y81.817
N12035 X498.547 Y81.436
N12040 X498.559 Y81.311
N12045 X498.566 Y81.186 Z-1.172
N12050 X498.578 Y80.804
N12055 X498.579 Y80.67
N12060 X498.574 Y80.537
N12065 X498.552 Y80.156
N12070 X498.542 Y80.026 Z-1.173
N12075 X498.526 Y79.896
N12080 X498.471 Y79.52
N12085 X498.449 Y79.394
N12090 X498.423 Y79.269
N12095 X498.336 Y78.897 Z-1.174
N12100 X498.303 Y78.769
N12105 X498.264 Y78.643
N12110 X498.144 Y78.278
N12115 X498.103 Y78.16
N12120 X498.056 Y78.043
N12125 X497.905 Y77.688 Z-1.175
N12130 X497.85 Y77.565
N12135 X497.789 Y77.446
N12140 X497.605 Y77.102
N12145 X497.542 Y76.991
N12150 X497.475 Y76.882 Z-1.176
N12155 X497.26 Y76.552
N12160 X497.186 Y76.442
N12165 X497.106 Y76.337
N12170 X496.859 Y76.021
N12175 X496.778 Y75.922 Z-1.177
N12180 X496.692 Y75.825
N12185 X496.414 Y75.527
N12190 X496.323 Y75.434
N12195 X460.706 Y40.426 Z-1.221
N12200 X460.617 Y40.342
N12205 X460.328 Y40.08
N12210 X460.233 Y39.998 Z-1.222
N12215 X460.135 Y39.919
N12220 X459.83 Y39.686
N12225 X459.727 Y39.611
N12230 X459.621 Y39.54
N12235 X459.301 Y39.336 Z-1.223
N12240 X459.194 Y39.271
N12245 X459.084 Y39.211
N12250 X458.752 Y39.036
N12255 X458.641 Y38.981
N12260 X458.527 Y38.93
N12265 X458.185 Y38.785 Z-1.224
N12270 X458.07 Y38.739
N12275 X457.953 Y38.698
N12280 X457.603 Y38.583
N12285 X457.482 Y38.546
N12290 X457.36 Y38.514
N12295 X457.002 Y38.429 Z-1.225
N12300 X456.88 Y38.402
N12305 X456.758 Y38.381
N12310 X456.395 Y38.326
N12315 X456.272 Y38.31
N12320 X456.148 Y38.299 Z-1.226
N12325 X455.782 Y38.274
N12330 X455.657 Y38.268
N12335 X455.532 Y38.267
N12340 X455.164 Y38.273
N12345 X455.039 Y38.277 Z-1.227
N12350 X454.915 Y38.287
N12355 X454.548 Y38.323
N12360 X454.424 Y38.338
N12365 X454.301 Y38.358
N12370 X453.935 Y38.425 Z-1.228
N12375 X453.812 Y38.451
N12380 X453.69 Y38.481
N12385 X453.329 Y38.579
N12390 X453.209 Y38.615
N12395 X453.09 Y38.655
N12400 X452.734 Y38.784 Z-1.229
N12405 X452.618 Y38.83
N12410 X452.503 Y38.88
N12415 X452.154 Y39.041
N12420 X452.04 Y39.096
N12425 X451.928 Y39.157
N12430 X451.589 Y39.349 Z-1.23
N12435 X451.484 Y39.412
N12440 X409.186 Y65.791 Z-1.274
N12445 X408.572 Y66.148
N12450 X407.983 Y66.441 Z-1.275
N12455 X407.382 Y66.694
N12460 X406.767 Y66.908 Z-1.276
N12465 X406.142 Y67.083 Z-1.277
N12470 X405.509 Y67.218
N12475 X404.87 Y67.313 Z-1.278
N12480 X404.227 Y67.368
N12485 X403.581 Y67.383 Z-1.279
N12490 X402.934 Y67.358
N12495 X402.291 Y67.293 Z-1.28
N12500 X401.651 Y67.187 Z-1.281
N12505 X401.017 Y67.041
N12510 X400.39 Y66.855 Z-1.282
N12515 X399.775 Y66.628
N12520 X399.125 Y66.341 Z-1.283
N12525 X388.252 Y61.107 Z-1.294
N12530 X388.119 Y61.046
N12535 X387.675 Y60.859
N12540 X387.534 Y60.803
N12545 X387.391 Y60.755
N12550 X386.941 Y60.616 Z-1.295
N12555 X386.796 Y60.576
N12560 X386.65 Y60.543
N12565 X386.199 Y60.452
N12570 X386.05 Y60.425 Z-1.296
N12575 X385.899 Y60.407
N12580 X385.448 Y60.362
N12585 X385.297 Y60.351
N12590 X385.146 Y60.348
N12595 X384.7 Y60.349 Z-1.297
N12600 X384.548 Y60.354
N12605 X384.397 Y60.366
N12610 X383.957 Y60.412
N12615 X383.808 Y60.431 Z-1.298
N12620 X383.66 Y60.458
N12625 X383.229 Y60.547
N12630 X383.08 Y60.582
N12635 X382.934 Y60.624
N12640 X382.517 Y60.756 Z-1.299
N12645 X382.375 Y60.805
N12650 X382.236 Y60.86
N12655 X381.833 Y61.033
N12660 X381.695 Y61.097
N12665 X381.56 Y61.168 Z-1.3
N12670 X381.176 Y61.381
N12675 X381.046 Y61.458
N12680 X380.92 Y61.541
N12685 X380.557 Y61.793 Z-1.301
N12690 X380.435 Y61.883
N12695 X380.318 Y61.979
N12700 X379.979 Y62.27
N12705 X379.866 Y62.371
N12710 X379.759 Y62.479 Z-1.302
N12715 X379.447 Y62.807
N12720 X379.345 Y62.919
N12725 X379.249 Y63.037
N12730 X378.967 Y63.401 Z-1.303
N12735 X378.877 Y63.523
N12740 X378.793 Y63.649
N12745 X378.544 Y64.048
N12750 X378.469 Y64.176
N12755 X378.4 Y64.307 Z-1.304
N12760 X378.186 Y64.74
N12765 X378.123 Y64.875
N12770 X369.412 Y84.934 Z-1.323
N12775 X369.398 Y84.968
N12780 X369.332 Y85.105 Z-1.324
N12785 X369.252 Y85.233
N12790 X369.16 Y85.352
N12795 X369.055 Y85.461
N12800 X368.939 Y85.558
N12805 X368.814 Y85.643
N12810 X368.68 Y85.713
N12815 X368.54 Y85.77
N12820 X368.395 Y85.811 Z-1.325
N12825 X368.246 Y85.837
N12830 X368.095 Y85.846
N12835 X367.944 Y85.84
N12840 X367.795 Y85.818
N12845 X367.648 Y85.781
N12850 X367.507 Y85.728
N12855 X367.371 Y85.661 Z-1.326
N12860 X367.244 Y85.579
N12865 X367.126 Y85.485
N12870 X367.018 Y85.379
N12875 X366.923 Y85.262
N12880 X366.84 Y85.136
N12885 X366.771 Y85.002
N12890 X366.716 Y84.861
N12895 X366.677 Y84.715 Z-1.327
N12900 X366.653 Y84.566
N12905 X366.645 Y84.415
N12910 X366.653 Y84.264
N12915 X366.676 Y84.115
N12920 X366.716 Y83.969
N12925 X366.77 Y83.828
N12930 X366.785 Y83.795
N12935 X375.481 Y63.773 Z-1.347
N12940 X375.728 Y63.245
N12945 X375.981 Y62.769 Z-1.348
N12950 X376.255 Y62.313
N12955 X376.548 Y61.878
N12960 X376.862 Y61.461 Z-1.349
N12965 X377.196 Y61.061
N12970 X377.548 Y60.682 Z-1.35
N12975 X377.918 Y60.321
N12980 X378.306 Y59.979 Z-1.351
N12985 X378.707 Y59.659
N12990 X379.125 Y59.359 Z-1.352
N12995 X379.556 Y59.08
N13000 X380 Y58.822 Z-1.353
N13005 X380.456 Y58.586
N13010 X380.923 Y58.373
N13015 X381.4 Y58.182 Z-1.354
N13020 X381.885 Y58.015
N13025 X382.377 Y57.871 Z-1.355
N13030 X382.877 Y57.752
N13035 X383.381 Y57.656 Z-1.356
N13040 X383.89 Y57.585
N13045 X384.402 Y57.54 Z-1.357
N13050 X384.916 Y57.519
N13055 X385.432 Y57.525 Z-1.358
N13060 X385.948 Y57.556
N13065 X386.462 Y57.613
N13070 X386.975 Y57.697 Z-1.359
N13075 X387.486 Y57.808
N13080 X387.995 Y57.946 Z-1.36
N13085 X388.498 Y58.111
N13090 X388.999 Y58.305 Z-1.361
N13095 X389.53 Y58.544
N13100 X400.411 Y63.781 Z-1.372
N13105 X400.583 Y63.858
N13110 X401.115 Y64.074 Z-1.373
N13115 X401.293 Y64.14
N13120 X401.476 Y64.194
N13125 X402.024 Y64.34
N13130 X402.208 Y64.382 Z-1.374
N13135 X402.394 Y64.413
N13140 X402.951 Y64.488
N13145 X403.137 Y64.507
N13150 X403.325 Y64.514 Z-1.375
N13155 X403.884 Y64.519
N13160 X404.072 Y64.514
N13165 X404.259 Y64.498
N13170 X404.814 Y64.433 Z-1.376
N13175 X404.999 Y64.405
N13180 X405.183 Y64.366
N13185 X405.729 Y64.231 Z-1.377
N13190 X405.911 Y64.18
N13195 X406.09 Y64.117
N13200 X406.618 Y63.913 Z-1.378
N13205 X406.792 Y63.84
N13210 X406.961 Y63.755
N13215 X407.467 Y63.482
N13220 X407.631 Y63.387 Z-1.379
N13225 X449.94 Y36.999 Z-1.422
N13230 X450.35 Y36.756 Z-1.423
N13235 X450.74 Y36.546
N13240 X451.135 Y36.356 Z-1.424
N13245 X451.535 Y36.183
N13250 X451.941 Y36.028
N13255 X452.351 Y35.891 Z-1.425
N13260 X452.765 Y35.771
N13265 X453.183 Y35.669
N13270 X453.604 Y35.585 Z-1.426
N13275 X454.026 Y35.519
N13280 X454.452 Y35.47 Z-1.427
N13285 X454.877 Y35.438
N13290 X455.305 Y35.424
N13295 X455.731 Y35.428 Z-1.428
N13300 X456.157 Y35.448
N13305 X456.582 Y35.486
N13310 X457.005 Y35.542 Z-1.429
N13315 X457.426 Y35.614
N13320 X457.843 Y35.703 Z-1.43
N13325 X458.256 Y35.81
N13330 X458.666 Y35.934
N13335 X459.07 Y36.074 Z-1.431
N13340 X459.467 Y36.23
N13345 X459.86 Y36.404
N13350 X460.247 Y36.595 Z-1.432
N13355 X460.625 Y36.801
N13360 X460.996 Y37.024 Z-1.433
N13365 X461.356 Y37.263
N13370 X461.71 Y37.519
N13375 X462.055 Y37.792 Z-1.434
N13380 X462.389 Y38.08
N13385 X462.736 Y38.407 Z-1.435
N13390 X498.307 Y73.367 Z-1.478
N13395 X498.654 Y73.724 Z-1.479
N13400 X498.961 Y74.068
N13405 X499.248 Y74.422 Z-1.48
N13410 X499.517 Y74.786
N13415 X499.77 Y75.161
N13420 X500.005 Y75.545 Z-1.481
N13425 X500.221 Y75.936
N13430 X500.421 Y76.336 Z-1.482
N13435 X500.603 Y76.745
N13440 X500.766 Y77.158
N13445 X500.91 Y77.576 Z-1.483
N13450 X501.038 Y78.004
N13455 X501.147 Y78.434 Z-1.484
N13460 X501.237 Y78.867
N13465 X501.31 Y79.306
N13470 X501.363 Y79.746 Z-1.485
N13475 X501.398 Y80.188
N13480 X501.415 Y80.631 Z-1.486
N13485 X501.412 Y81.073
N13490 X501.391 Y81.517
N13495 X501.351 Y81.961 Z-1.487
N13500 X501.292 Y82.401
N13505 X501.214 Y82.839
N13510 X501.117 Y83.274 Z-1.488
N13515 X501.002 Y83.706
N13520 X500.868 Y84.132 Z-1.489
N13525 X500.713 Y84.556
N13530 X500.541 Y84.973
N13535 X500.349 Y85.383 Z-1.49
N13540 X500.137 Y85.788
N13545 X499.906 Y86.186 Z-1.491
N13550 X499.637 Y86.606
N13555 X472.697 Y126.523 Z-1.533
N13560 X472.599 Y126.678 Z-1.534
N13565 X472.315 Y127.16
N13570 X472.227 Y127.321
N13575 X472.149 Y127.487
N13580 X471.929 Y127.993 Z-1.535
N13585 X471.86 Y128.166
N13590 X471.802 Y128.343
N13595 X471.648 Y128.867 Z-1.536
N13600 X471.602 Y129.041
N13605 X471.567 Y129.217
N13610 X471.477 Y129.754
N13615 X471.452 Y129.938 Z-1.537
N13620 X471.439 Y130.123
N13625 X471.416 Y130.667
N13630 X471.414 Y130.849
N13635 X471.422 Y131.03 Z-1.538
N13640 X471.465 Y131.575
N13645 X471.486 Y131.759
N13650 X471.517 Y131.942
N13655 X471.628 Y132.483 Z-1.539
N13660 X471.671 Y132.661
N13665 X471.724 Y132.837
N13670 X471.902 Y133.366 Z-1.54
N13675 X471.966 Y133.539
N13680 X488.819 Y174.999 Z-1.579
N13685 X488.895 Y175.17
N13690 X489.14 Y175.679 Z-1.58
N13695 X489.225 Y175.843
N13700 X489.32 Y176.001
N13705 X489.621 Y176.469 Z-1.581
N13710 X489.726 Y176.622
N13715 X489.841 Y176.769
N13720 X490.195 Y177.193
N13725 X490.319 Y177.332 Z-1.582
N13730 X490.452 Y177.464
N13735 X490.854 Y177.839
N13740 X490.991 Y177.959
N13745 X491.135 Y178.071 Z-1.583
N13750 X491.579 Y178.394
N13755 X491.731 Y178.497
N13760 X491.888 Y178.591
N13765 X492.371 Y178.859 Z-1.584
N13770 X492.539 Y178.946
N13775 X492.712 Y179.021
N13780 X493.229 Y179.228 Z-1.585
N13785 X493.402 Y179.291
N13790 X493.578 Y179.343
N13795 X494.123 Y179.487 Z-1.586
N13800 X494.305 Y179.53
N13805 X543.039 Y189.198 Z-1.629
N13810 X543.515 Y189.304 Z-1.63
N13815 X543.951 Y189.421
N13820 X544.38 Y189.557 Z-1.631
N13825 X544.801 Y189.71
N13830 X545.211 Y189.88
N13835 X545.614 Y190.068 Z-1.632
N13840 X546.003 Y190.27
N13845 X546.382 Y190.489 Z-1.633
N13850 X546.755 Y190.725
N13855 X547.115 Y190.975
N13860 X547.463 Y191.239 Z-1.634
N13865 X547.801 Y191.519
N13870 X548.125 Y191.811
N13875 X548.436 Y192.115 Z-1.635
N13880 X548.735 Y192.434
N13885 X549.022 Y192.765 Z-1.636
N13890 X549.293 Y193.106
N13895 X549.549 Y193.458
N13900 X549.792 Y193.823 Z-1.637
N13905 X550.02 Y194.196
N13910 X550.229 Y194.575 Z-1.638
N13915 X550.425 Y194.969
N13920 X550.605 Y195.37
N13925 X550.766 Y195.776 Z-1.639
N13930 X550.912 Y196.192
N13935 X551.039 Y196.614
N13940 X551.148 Y197.042 Z-1.64
N13945 X551.24 Y197.479
N13950 X551.312 Y197.919 Z-1.641
N13955 X551.365 Y198.363
N13960 X551.399 Y198.814
N13965 X551.414 Y199.304 Z-1.642
N13970 X551.86 Y247.574 Z-1.684
N13975 X551.854 Y248.064 Z-1.685
N13980 X551.828 Y248.516
N13985 X551.782 Y248.966
N13990 X551.717 Y249.41 Z-1.686
N13995 X551.634 Y249.846
N14000 X551.531 Y250.28 Z-1.687
N14005 X551.411 Y250.707
N14010 X551.273 Y251.124
N14015 X551.117 Y251.537 Z-1.688
N14020 X550.943 Y251.942
N14025 X550.754 Y252.337 Z-1.689
N14030 X550.548 Y252.725
N14035 X550.325 Y253.106
N14040 X550.089 Y253.473 Z-1.69
N14045 X549.837 Y253.83
N14050 X549.57 Y254.177 Z-1.691
N14055 X549.285 Y254.516
N14060 X548.991 Y254.839
N14065 X548.684 Y255.149 Z-1.692
N14070 X548.361 Y255.448
N14075 X548.029 Y255.732
N14080 X547.682 Y256.003 Z-1.693
N14085 X547.323 Y256.261
N14090 X546.956 Y256.5 Z-1.694
N14095 X546.576 Y256.726
N14100 X546.185 Y256.936
N14105 X545.786 Y257.129 Z-1.695
N14110 X545.376 Y257.306
N14115 X544.955 Y257.465 Z-1.696
N14120 X544.527 Y257.607
N14125 X544.091 Y257.731
N14130 X543.613 Y257.843 Z-1.697
N14135 X492.502 Y268.659 Z-1.743
N14140 X492.329 Y268.701
N14145 X491.819 Y268.841
N14150 X491.652 Y268.892
N14155 X491.489 Y268.953 Z-1.744
N14160 X491.004 Y269.149
N14165 X490.845 Y269.218
N14170 X490.69 Y269.297
N14175 X490.234 Y269.546 Z-1.745
N14180 X490.083 Y269.634
N14185 X489.938 Y269.731
N14190 X489.516 Y270.03 Z-1.746
N14195 X489.377 Y270.134
N14200 X489.245 Y270.247
N14205 X488.86 Y270.593
N14210 X488.735 Y270.711 Z-1.747
N14215 X488.618 Y270.837
N14220 X488.274 Y271.226
N14225 X488.162 Y271.36
N14230 X488.058 Y271.5
N14235 X487.759 Y271.93 Z-1.748
N14240 X487.662 Y272.078
N14245 X487.575 Y272.232
N14250 X487.326 Y272.699 Z-1.749
N14255 X487.249 Y272.853
N14260 X470.33 Y309.504 Z-1.784
N14265 X470.255 Y309.682
N14270 X470.046 Y310.224 Z-1.785
N14275 X469.983 Y310.403
N14280 X469.932 Y310.585
N14285 X469.795 Y311.141 Z-1.786
N14290 X469.755 Y311.33
N14295 X469.727 Y311.521
N14300 X469.663 Y312.085 Z-1.787
N14305 X469.648 Y312.272
N14310 X469.644 Y312.46
N14315 X469.651 Y313.025
N14320 X469.66 Y313.217 Z-1.788
N14325 X469.681 Y313.408
N14330 X469.76 Y313.967
N14335 X469.792 Y314.152
N14340 X469.835 Y314.334 Z-1.789
N14345 X469.984 Y314.882
N14350 X470.04 Y315.064
N14355 X470.107 Y315.243
N14360 X470.326 Y315.772 Z-1.79
N14365 X470.406 Y315.948
N14370 X470.497 Y316.119
N14375 X470.786 Y316.622 Z-1.791
N14380 X470.885 Y316.782
N14385 X499.732 Y360.385 Z-1.837
N14390 X499.991 Y360.797
N14395 X500.215 Y361.187 Z-1.838
N14400 X500.419 Y361.584
N14405 X500.604 Y361.986 Z-1.839
N14410 X500.771 Y362.393
N14415 X500.919 Y362.808
N14420 X501.051 Y363.227 Z-1.84
N14425 X501.163 Y363.649
N14430 X501.257 Y364.075
N14435 X501.333 Y364.503 Z-1.841
N14440 X501.391 Y364.933
N14445 X501.431 Y365.365 Z-1.842
N14450 X501.453 Y365.802
N14455 X501.457 Y366.237
N14460 X501.444 Y366.667 Z-1.843
N14465 X501.412 Y367.099
N14470 X501.362 Y367.53 Z-1.844
N14475 X501.294 Y367.961
N14480 X501.209 Y368.387
N14485 X501.107 Y368.807 Z-1.845
N14490 X500.987 Y369.223
N14495 X500.848 Y369.638
N14500 X500.694 Y370.044 Z-1.846
N14505 X500.521 Y370.445
N14510 X500.331 Y370.84 Z-1.847
N14515 X500.126 Y371.224
N14520 X499.901 Y371.604
N14525 X499.66 Y371.975 Z-1.848
N14530 X499.404 Y372.335
N14535 X499.129 Y372.687 Z-1.849
N14540 X498.836 Y373.03
N14545 X498.505 Y373.385
N14550 X463.769 Y409.025 Z-1.893
N14555 X463.425 Y409.363 Z-1.894
N14560 X463.094 Y409.661
N14565 X462.75 Y409.945
N14570 X462.4 Y410.21 Z-1.895
N14575 X462.039 Y410.458
N14580 X461.668 Y410.691
N14585 X461.293 Y410.905 Z-1.896
N14590 X460.904 Y411.105
N14595 X460.51 Y411.289 Z-1.897
N14600 X460.114 Y411.453
N14605 X459.708 Y411.601
N14610 X459.293 Y411.733 Z-1.898
N14615 X458.879 Y411.848
N14620 X458.461 Y411.944 Z-1.899
N14625 X458.035 Y412.025
N14630 X457.611 Y412.086
N14635 X457.182 Y412.131 Z-1.9
N14640 X456.751 Y412.158
N14645 X456.321 Y412.167
N14650 X455.891 Y412.159 Z-1.901
N14655 X455.459 Y412.132
N14660 X455.027 Y412.088 Z-1.902
N14665 X454.601 Y412.027
N14670 X454.175 Y411.946
N14675 X453.751 Y411.848 Z-1.903
N14680 X453.334 Y411.733
N14685 X452.919 Y411.598
N14690 X452.504 Y411.445 Z-1.904
N14695 X452.098 Y411.275
N14700 X451.701 Y411.087 Z-1.905
N14705 X451.305 Y410.878
N14710 X450.887 Y410.635
N14715 X403.076 Y381.333 Z-1.955
N14720 X402.926 Y381.247
N14725 X402.458 Y380.996
N14730 X402.299 Y380.917
N14735 X402.136 Y380.848 Z-1.956
N14740 X401.647 Y380.656
N14745 X401.484 Y380.597
N14750 X401.318 Y380.548
N14755 X400.815 Y380.415 Z-1.957
N14760 X400.643 Y380.375
N14765 X400.47 Y380.345
N14770 X399.956 Y380.272 Z-1.958
N14775 X399.783 Y380.252
N14780 X399.609 Y380.243
N14785 X399.09 Y380.23
N14790 X398.917 Y380.231 Z-1.959
N14795 X398.744 Y380.241
N14800 X398.226 Y380.288
N14805 X398.055 Y380.309
N14810 X397.886 Y380.339
N14815 X397.372 Y380.446 Z-1.96
N14820 X397.198 Y380.487
N14825 X397.028 Y380.539
N14830 X396.525 Y380.708 Z-1.961
N14835 X396.361 Y380.769
N14840 X361.742 Y394.693 Z-1.994
N14845 X361.575 Y394.766
N14850 X361.076 Y395.003
N14855 X360.914 Y395.086
N14860 X360.758 Y395.179 Z-1.995
N14865 X360.297 Y395.471
N14870 X360.146 Y395.572
N14875 X360.002 Y395.683
N14880 X359.584 Y396.025 Z-1.996
N14885 X359.448 Y396.144
N14890 X359.319 Y396.271
N14895 X358.946 Y396.66 Z-1.997
N14900 X358.825 Y396.793
N14905 X358.712 Y396.934
N14910 X358.389 Y397.364
N14915 X358.284 Y397.514 Z-1.998
N14920 X358.188 Y397.669
N14925 X357.918 Y398.138
N14930 X357.833 Y398.297
N14935 X357.757 Y398.461 Z-1.999
N14940 X357.544 Y398.962
N14945 X357.478 Y399.132
N14950 X357.422 Y399.305
N14955 X357.269 Y399.836 Z-2
N14960 X357.224 Y400.012
N14965 X345.341 Y453.169 Z-2.048
N14970 X345.223 Y453.644
N14975 X345.095 Y454.078 Z-2.049
N14980 X344.95 Y454.502
N14985 X344.787 Y454.919 Z-2.05
N14990 X344.607 Y455.325
N14995 X344.412 Y455.719
N15000 X344.199 Y456.104 Z-2.051
N15005 X343.969 Y456.482
N15010 X343.725 Y456.848
N15015 X343.468 Y457.2 Z-2.052
N15020 X343.196 Y457.541
N15025 X342.91 Y457.871 Z-2.053
N15030 X342.609 Y458.188
N15035 X342.295 Y458.494
N15040 X341.971 Y458.785 Z-2.054
N15045 X341.635 Y459.062
N15050 X341.288 Y459.324 Z-2.055
N15055 X340.929 Y459.573
N15060 X340.558 Y459.808
N15065 X340.181 Y460.026 Z-2.056
N15070 X339.797 Y460.226
N15075 X339.399 Y460.413
N15080 X338.994 Y460.583 Z-2.057
N15085 X338.583 Y460.735
N15090 X338.165 Y460.87 Z-2.058
N15095 X337.74 Y460.987
N15100 X337.309 Y461.087
N15105 X336.873 Y461.167 Z-2.059
N15110 X336.431 Y461.23
N15115 X335.985 Y461.273 Z-2.06
N15120 X335.531 Y461.297
N15125 X335.043 Y461.301
N15130 X283.891 Y460.578 Z-2.105
N15135 X283.411 Y460.561 Z-2.106
N15140 X282.97 Y460.526
N15145 X282.529 Y460.471 Z-2.107
N15150 X282.095 Y460.399
N15155 X281.67 Y460.309
N15160 X281.248 Y460.201 Z-2.108
N15165 X280.831 Y460.075
N15170 X280.422 Y459.933
N15175 X280.02 Y459.774 Z-2.109
N15180 X279.625 Y459.598
N15185 X279.239 Y459.407 Z-2.11
N15190 X278.864 Y459.201
N15195 X278.493 Y458.977
N15200 X278.137 Y458.742 Z-2.111
N15205 X277.788 Y458.49
N15210 X277.449 Y458.224
N15215 X277.123 Y457.945 Z-2.112
N15220 X276.808 Y457.654
N15225 X276.504 Y457.348 Z-2.113
N15230 X276.213 Y457.03
N15235 X275.938 Y456.703
N15240 X275.674 Y456.361 Z-2.114
N15245 X275.423 Y456.008
N15250 X275.188 Y455.647
N15255 X274.968 Y455.274 Z-2.115
N15260 X274.763 Y454.892
N15265 X274.574 Y454.501 Z-2.116
N15270 X274.401 Y454.097
N15275 X274.245 Y453.688
N15280 X274.105 Y453.268 Z-2.117
N15285 X273.983 Y452.84
N15290 X273.872 Y452.373 Z-2.118
N15295 X262.557 Y399.953 Z-2.165
N15300 X262.512 Y399.771
N15305 X262.361 Y399.236
N15310 X262.307 Y399.063 Z-2.166
N15315 X262.242 Y398.894
N15320 X262.03 Y398.387
N15325 X261.955 Y398.221
N15330 X261.87 Y398.061 Z-2.167
N15335 X261.601 Y397.588
N15340 X261.506 Y397.432
N15345 X261.401 Y397.282
N15350 X261.077 Y396.846 Z-2.168
N15355 X260.963 Y396.701
N15360 X260.84 Y396.564
N15365 X260.466 Y396.172 Z-2.169
N15370 X260.338 Y396.046
N15375 X260.203 Y395.928
N15380 X259.782 Y395.581
N15385 X259.635 Y395.468 Z-2.17
N15390 X259.482 Y395.363
N15395 X259.019 Y395.069
N15400 X258.863 Y394.977
N15405 X258.701 Y394.893 Z-2.171
N15410 X258.199 Y394.654
N15415 X258.03 Y394.58
N15420 X223.565 Y380.702 Z-2.204
N15425 X223.398 Y380.641
N15430 X222.888 Y380.47
N15435 X222.717 Y380.418 Z-2.205
N15440 X222.544 Y380.377
N15445 X222.024 Y380.269
N15450 X221.851 Y380.238
N15455 X221.676 Y380.217 Z-2.206
N15460 X221.151 Y380.171
N15465 X220.974 Y380.161
N15470 X220.798
N15475 X220.273 Y380.177 Z-2.207
N15480 X220.098 Y380.188
N15485 X219.924 Y380.208
N15490 X219.405 Y380.285 Z-2.208
N15495 X219.231 Y380.316
N15500 X219.06 Y380.358
N15505 X218.551 Y380.496
N15510 X218.379 Y380.548
N15515 X218.211 Y380.61 Z-2.209
N15520 X217.719 Y380.809
N15525 X217.56 Y380.879
N15530 X217.405 Y380.958
N15535 X216.933 Y381.216 Z-2.21
N15540 X216.776 Y381.308
N15545 X169.917 Y410.745 Z-2.259
N15550 X169.507 Y410.991
N15555 X169.118 Y411.201
N15560 X168.723 Y411.393 Z-2.26
N15565 X168.321 Y411.568
N15570 X167.914 Y411.725 Z-2.261
N15575 X167.505 Y411.863
N15580 X167.091 Y411.984
N15585 X166.673 Y412.087 Z-2.262
N15590 X166.251 Y412.172
N15595 X165.826 Y412.24 Z-2.263
N15600 X165.399 Y412.29
N15605 X164.974 Y412.323
N15610 X164.546 Y412.338 Z-2.264
N15615 X164.119 Y412.335
N15620 X163.692 Y412.315
N15625 X163.265 Y412.278 Z-2.265
N15630 X162.842 Y412.223
N15635 X162.422 Y412.152 Z-2.266
N15640 X162.001 Y412.061
N15645 X161.586 Y411.956
N15650 X161.177 Y411.833 Z-2.267
N15655 X160.77 Y411.692
N15660 X160.371 Y411.536
N15665 X159.979 Y411.363 Z-2.268
N15670 X159.593 Y411.172
N15675 X159.211 Y410.964 Z-2.269
N15680 X158.841 Y410.742
N15685 X158.478 Y410.503
N15690 X158.124 Y410.247 Z-2.27
N15695 X157.779 Y409.973
N15700 X157.444 Y409.685
N15705 X157.096 Y409.357 Z-2.271
N15710 X121.563 Y374.445 Z-2.315
N15715 X121.215 Y374.087
N15720 X120.909 Y373.743 Z-2.316
N15725 X120.621 Y373.389
N15730 X120.351 Y373.025
N15735 X120.099 Y372.65 Z-2.317
N15740 X119.864 Y372.267
N15745 X119.647 Y371.873 Z-2.318
N15750 X119.447 Y371.473
N15755 X119.267 Y371.069
N15760 X119.103 Y370.652 Z-2.319
N15765 X118.957 Y370.233
N15770 X118.831 Y369.807
N15775 X118.721 Y369.376 Z-2.32
N15780 X118.631 Y368.943
N15785 X118.558 Y368.503 Z-2.321
N15790 X118.505 Y368.063
N15795 X118.47 Y367.621
N15800 X118.453 Y367.178 Z-2.322
N15805 X118.456 Y366.736
N15810 X118.477 Y366.291 Z-2.323
N15815 X118.517 Y365.847
N15820 X118.576 Y365.407
N15825 X118.654 Y364.968 Z-2.324
N15830 X118.75 Y364.535
N15835 X118.866 Y364.103 Z-2.325
N15840 X119.001 Y363.675
N15845 X119.156 Y363.251
N15850 X119.328 Y362.833 Z-2.326
N15855 X119.52 Y362.425
N15860 X119.732 Y362.02 Z-2.327
N15865 X119.964 Y361.621
N15870 X120.233 Y361.202
N15875 X148.831 Y318.874 Z-2.372
N15880 X148.929 Y318.72
N15885 X149.214 Y318.237 Z-2.373
N15890 X149.304 Y318.073
N15895 X149.383 Y317.904
N15900 X149.603 Y317.396 Z-2.374
N15905 X149.671 Y317.225
N15910 X149.728 Y317.051
N15915 X149.883 Y316.523 Z-2.375
N15920 X149.929 Y316.346
N15925 X149.965 Y316.166
N15930 X150.054 Y315.627
N15935 X150.078 Y315.443
N15940 X150.092 Y315.259 Z-2.376
N15945 X150.114 Y314.713
N15950 X150.115 Y314.532
N15955 X150.106 Y314.351
N15960 X150.062 Y313.804 Z-2.377
N15965 X150.042 Y313.621
N15970 X150.01 Y313.439
N15975 X149.898 Y312.896 Z-2.378
N15980 X149.855 Y312.716
N15985 X149.801 Y312.539
N15990 X149.621 Y312.008 Z-2.379
N15995 X149.556 Y311.833
N16000 X134.237 Y274.459 Z-2.414
N16005 X134.165 Y274.297
N16010 X133.929 Y273.806 Z-2.415
N16015 X133.846 Y273.646
N16020 X133.753 Y273.491
N16025 X133.463 Y273.037 Z-2.416
N16030 X133.361 Y272.887
N16035 X133.249 Y272.743
N16040 X132.909 Y272.331
N16045 X132.792 Y272.197 Z-2.417
N16050 X132.668 Y272.071
N16055 X132.283 Y271.703
N16060 X132.15 Y271.584
N16065 X132.011 Y271.473 Z-2.418
N16070 X131.586 Y271.154
N16075 X131.441 Y271.051
N16080 X131.29 Y270.958
N16085 X130.828 Y270.69 Z-2.419
N16090 X130.669 Y270.604
N16095 X130.504 Y270.527
N16100 X130.009 Y270.315 Z-2.42
N16105 X129.844 Y270.25
N16110 X129.675 Y270.195
N16115 X129.152 Y270.041
N16120 X128.976 Y269.995 Z-2.421
N16125 X75.917 Y257.812 Z-2.468
N16130 X75.451 Y257.694 Z-2.469
N16135 X75.025 Y257.567
N16140 X74.606 Y257.421 Z-2.47
N16145 X74.197 Y257.259
N16150 X73.798 Y257.081
N16155 X73.408 Y256.887 Z-2.471
N16160 X73.026 Y256.676
N16165 X72.656 Y256.45
N16170 X72.298 Y256.211 Z-2.472
N16175 X71.949 Y255.957
N16180 X71.612 Y255.688 Z-2.473
N16185 X71.287 Y255.407
N16190 X70.973 Y255.111
N16195 X70.671 Y254.804 Z-2.474
N16200 X70.383 Y254.484
N16205 X70.108 Y254.153 Z-2.475
N16210 X69.847 Y253.812
N16215 X69.601 Y253.46
N16220 X69.368 Y253.098 Z-2.476
N16225 X69.151 Y252.726
N16230 X68.95 Y252.346
N16235 X68.764 Y251.957 Z-2.477
N16240 X68.593 Y251.56
N16245 X68.44 Y251.156 Z-2.478
N16250 X68.303 Y250.744
N16255 X68.183 Y250.327
N16260 X68.081 Y249.904 Z-2.479
N16265 X67.996 Y249.474
N16270 X67.93 Y249.039
N16275 X67.882 Y248.6 Z-2.48
N16280 X67.853 Y248.156
N16285 X67.843 Y247.674 Z-2.481
N16290 Y200.129 Z-2.522
N16295 X67.853 Y199.641 Z-2.523
N16300 X67.883 Y199.191
N16305 X67.932 Y198.746 Z-2.524
N16310 X68 Y198.306
N16315 X68.087 Y197.871
N16320 X68.192 Y197.443 Z-2.525
N16325 X68.315 Y197.021
N16330 X68.455 Y196.604 Z-2.526
N16335 X68.612 Y196.197
N16340 X68.786 Y195.796
N16345 X68.977 Y195.403 Z-2.527
N16350 X69.184 Y195.02
N16355 X69.407 Y194.644 Z-2.528
N16360 X69.645 Y194.279
N16365 X69.896 Y193.925
N16370 X70.163 Y193.582 Z-2.529
N16375 X70.444 Y193.25
N16380 X70.738 Y192.93
N16385 X71.047 Y192.621 Z-2.53
N16390 X71.368 Y192.325
N16395 X71.7 Y192.044 Z-2.531
N16400 X72.044 Y191.776
N16405 X72.4 Y191.522
N16410 X72.766 Y191.284 Z-2.532
N16415 X73.145 Y191.06
N16420 X73.533 Y190.852 Z-2.533
N16425 X73.929 Y190.661
N16430 X74.337 Y190.486
N16435 X74.754 Y190.328 Z-2.534
N16440 X75.18 Y190.187
N16445 X75.611 Y190.066
N16450 X76.087 Y189.954 Z-2.535
N16455 X125.549 Y179.47 Z-2.579
N16460 X125.724 Y179.427 Z-2.58
N16465 X126.261 Y179.279
N16470 X126.438 Y179.224
N16475 X126.612 Y179.159
N16480 X127.119 Y178.949 Z-2.581
N16485 X127.287 Y178.873
N16490 X127.449 Y178.787
N16495 X127.924 Y178.518 Z-2.582
N16500 X128.079 Y178.424
N16505 X128.228 Y178.321
N16510 X128.664 Y177.999
N16515 X128.808 Y177.886 Z-2.583
N16520 X128.944 Y177.765
N16525 X129.338 Y177.392
N16530 X129.465 Y177.264
N16535 X129.584 Y177.13 Z-2.584
N16540 X129.932 Y176.711
N16545 X130.046 Y176.564
N16550 X130.152 Y176.41
N16555 X130.448 Y175.947 Z-2.585
N16560 X130.541 Y175.791
N16565 X130.624 Y175.629
N16570 X130.865 Y175.127 Z-2.586
N16575 X130.94 Y174.959
N16580 X147.816 Y133.443 Z-2.625
N16585 X147.88 Y133.27
N16590 X148.058 Y132.741 Z-2.626
N16595 X148.111 Y132.565
N16600 X148.154 Y132.387
N16605 X148.265 Y131.846 Z-2.627
N16610 X148.296 Y131.663
N16615 X148.317 Y131.479
N16620 X148.36 Y130.934
N16625 X148.369 Y130.75 Z-2.628
N16630 X148.366 Y130.566
N16635 X148.342 Y130.022
N16640 X148.329 Y129.842
N16645 X148.305 Y129.663 Z-2.629
N16650 X148.216 Y129.126
N16655 X148.18 Y128.946
N16660 X148.133 Y128.768
N16665 X147.978 Y128.243 Z-2.63
N16670 X147.921 Y128.07
N16675 X147.854 Y127.9
N16680 X147.635 Y127.394 Z-2.631
N16685 X147.555 Y127.225
N16690 X147.465 Y127.061
N16695 X147.181 Y126.58
N16700 X147.085 Y126.427 Z-2.632
N16705 X120.156 Y86.503 Z-2.674
N16710 X119.888 Y86.084
N16715 X119.658 Y85.688 Z-2.675
N16720 X119.446 Y85.281
N16725 X119.253 Y84.87 Z-2.676
N16730 X119.082 Y84.456
N16735 X118.928 Y84.032
N16740 X118.793 Y83.604 Z-2.677
N16745 X118.678 Y83.172
N16750 X118.581 Y82.736 Z-2.678
N16755 X118.503 Y82.298
N16760 X118.444 Y81.858
N16765 X118.405 Y81.417 Z-2.679
N16770 X118.384 Y80.972
N16775 X118.381 Y80.528
N16780 X118.398 Y80.087 Z-2.68
N16785 X118.433 Y79.645
N16790 X118.487 Y79.203 Z-2.681
N16795 X118.56 Y78.764
N16800 X118.65 Y78.332
N16805 X118.759 Y77.901 Z-2.682
N16810 X118.886 Y77.475
N16815 X119.031 Y77.058 Z-2.683
N16820 X119.195 Y76.642
N16825 X119.377 Y76.234
N16830 X119.577 Y75.833 Z-2.684
N16835 X119.793 Y75.443
N16840 X120.027 Y75.061 Z-2.685
N16845 X120.281 Y74.685
N16850 X120.551 Y74.32
N16855 X120.838 Y73.966 Z-2.686
N16860 X121.143 Y73.623
N16865 X121.491 Y73.267 Z-2.687
N16870 X156.974 Y38.416 Z-2.73
N16875 X157.327 Y38.084 Z-2.731
N16880 X157.667 Y37.791
N16885 X158.017 Y37.515 Z-2.732
N16890 X158.376 Y37.257
N16895 X158.744 Y37.015
N16900 X159.12 Y36.791 Z-2.733
N16905 X159.505 Y36.583
N16910 X159.897 Y36.392
N16915 X160.295 Y36.218 Z-2.734
N16920 X160.702 Y36.061
N16925 X161.113 Y35.922 Z-2.735
N16930 X161.528 Y35.8
N16935 X161.95 Y35.695
N16940 X162.373 Y35.608 Z-2.736
N16945 X162.801 Y35.539
N16950 X163.23 Y35.487 Z-2.737
N16955 X163.662 Y35.453
N16960 X164.094 Y35.437
N16965 X164.527 Y35.438 Z-2.738
N16970 X164.96 Y35.458
N16975 X165.392 Y35.495
N16980 X165.821 Y35.55 Z-2.739
N16985 X166.25 Y35.624
N16990 X166.675 Y35.715 Z-2.74
N16995 X167.097 Y35.825
N17000 X167.516 Y35.953
N17005 X167.929 Y36.099 Z-2.741
N17010 X168.338 Y36.263
N17015 X168.742 Y36.445
N17020 X169.138 Y36.646 Z-2.742
N17025 X169.53 Y36.866
N17030 X169.942 Y37.122 Z-2.743
N17035 X209.833 Y63.124 Z-2.785
N17040 X209.995 Y63.223
N17045 X210.495 Y63.505
N17050 X210.663 Y63.593
N17055 X210.835 Y63.67 Z-2.786
N17060 X211.359 Y63.884
N17065 X211.536 Y63.95
N17070 X211.716 Y64.005
N17075 X212.258 Y64.151 Z-2.787
N17080 X212.44 Y64.194
N17085 X212.625 Y64.225
N17090 X213.178 Y64.302 Z-2.788
N17095 X213.365 Y64.322
N17100 X213.552 Y64.33
N17105 X214.111 Y64.337 Z-2.789
N17110 X214.299 Y64.334
N17115 X214.486 Y64.318
N17120 X215.043 Y64.255
N17125 X215.229 Y64.228 Z-2.79
N17130 X215.413 Y64.19
N17135 X215.964 Y64.056
N17140 X216.147 Y64.006
N17145 X216.327 Y63.943 Z-2.791
N17150 X216.863 Y63.739
N17155 X217.037 Y63.666
N17160 X229.875 Y57.815 Z-2.804
N17165 X230.383 Y57.599
N17170 X230.86 Y57.423 Z-2.805
N17175 X231.341 Y57.273
N17180 X231.825 Y57.147
N17185 X232.312 Y57.046 Z-2.806
N17190 X232.801 Y56.969
N17195 X233.291 Y56.916 Z-2.807
N17200 X233.782 Y56.887
N17205 X234.272 Y56.881 Z-2.808
N17210 X234.762 Y56.898
N17215 X235.248 Y56.938
N17220 X235.734 Y57.001 Z-2.809
N17225 X236.214 Y57.086
N17230 X236.691 Y57.194 Z-2.81
N17235 X237.161 Y57.323
N17240 X237.626 Y57.474 Z-2.811
N17245 X238.082 Y57.646
N17250 X238.531 Y57.84
N17255 X238.97 Y58.053 Z-2.812
N17260 X239.398 Y58.287
N17265 X239.817 Y58.541 Z-2.813
N17270 X240.222 Y58.814
N17275 X240.615 Y59.106 Z-2.814
N17280 X240.995 Y59.417
N17285 X241.359 Y59.746
N17290 X241.709 Y60.094 Z-2.815
N17295 X242.043 Y60.46
N17300 X242.36 Y60.842 Z-2.816
N17305 X242.66 Y61.243
N17310 X242.942 Y61.661 Z-2.817
N17315 X243.205 Y62.096
N17320 X243.467 Y62.583 Z-2.818
N17325 X251.891 Y79.225 Z-2.834
N17330 X251.917 Y79.274
N17335 X251.978 Y79.407
N17340 X252.026 Y79.545
N17345 X252.06 Y79.688
N17350 X252.079 Y79.834 Z-2.835
N17355 X252.082 Y79.981
N17360 X252.071 Y80.127
N17365 X252.045 Y80.271
N17370 X252.004 Y80.412
N17375 X251.949 Y80.548
N17380 X251.88 Y80.678
N17385 X251.799 Y80.8
N17390 X251.705 Y80.913 Z-2.836
N17395 X251.6 Y81.016
N17400 X251.486 Y81.107
N17405 X251.362 Y81.187
N17410 X251.231 Y81.253
N17415 X251.094 Y81.306
N17420 X250.952 Y81.344
N17425 X250.807 Y81.367
N17430 X250.661 Y81.376 Z-2.837
N17435 X250.514 Y81.37
N17440 X250.369 Y81.348
N17445 X250.227 Y81.312
N17450 X250.089 Y81.261
N17455 X249.957 Y81.197
N17460 X249.832 Y81.119
N17465 X249.716 Y81.03
N17470 X249.61 Y80.928 Z-2.838
N17475 X249.515 Y80.817
N17480 X249.432 Y80.696
N17485 X249.361 Y80.567
N17490 X249.337 Y80.518
N17495 X240.895 Y63.842 Z-2.854
N17500 X240.829 Y63.719 Z-2.855
N17505 X240.605 Y63.323
N17510 X240.531 Y63.2
N17515 X240.452 Y63.08
N17520 X240.197 Y62.716 Z-2.856
N17525 X240.11 Y62.599
N17530 X240.018 Y62.486
N17535 X239.734 Y62.154
N17540 X239.64 Y62.048
N17545 X239.54 Y61.948 Z-2.857
N17550 X239.231 Y61.649
N17555 X239.126 Y61.552
N17560 X239.016 Y61.46
N17565 X238.684 Y61.195 Z-2.858
N17570 X238.569 Y61.108
N17575 X238.45 Y61.026
N17580 X238.097 Y60.797
N17585 X237.973 Y60.721
N17590 X237.847 Y60.651
N17595 X237.475 Y60.457 Z-2.859
N17600 X237.347 Y60.394
N17605 X237.217 Y60.338
N17610 X236.83 Y60.181
N17615 X236.696 Y60.13 Z-2.86
N17620 X236.559 Y60.086
N17625 X236.159 Y59.967
N17630 X236.021 Y59.929
N17635 X235.881 Y59.898
N17640 X235.47 Y59.817 Z-2.861
N17645 X235.328 Y59.793
N17650 X235.185 Y59.775
N17655 X234.765 Y59.734
N17660 X234.622 Y59.723
N17665 X234.479 Y59.719 Z-2.862
N17670 X234.054 Y59.718
N17675 X233.91 Y59.721
N17680 X233.766 Y59.731
N17685 X233.338 Y59.771 Z-2.863
N17690 X233.195 Y59.788
N17695 X233.052 Y59.812
N17700 X232.624 Y59.894
N17705 X232.485 Y59.925
N17710 X232.347 Y59.962
N17715 X231.92 Y60.087 Z-2.864
N17720 X231.784 Y60.13
N17725 X231.651 Y60.18
N17730 X231.228 Y60.348
N17735 X231.096 Y60.405 Z-2.865
N17740 X218.267 Y66.251 Z-2.877
N17745 X217.612 Y66.525 Z-2.878
N17750 X216.992 Y66.738
N17755 X216.363 Y66.911 Z-2.879
N17760 X215.726 Y67.044
N17765 X215.085 Y67.136 Z-2.88
N17770 X214.441 Y67.188
N17775 X213.795 Y67.199 Z-2.881
N17780 X213.15 Y67.171 Z-2.882
N17785 X212.509 Y67.103
N17790 X211.872 Y66.994 Z-2.883
N17795 X211.243 Y66.847
N17800 X210.623 Y66.66 Z-2.884
N17805 X210.014 Y66.434
N17810 X209.417 Y66.168 Z-2.885
N17815 X208.837 Y65.865 Z-2.886
N17820 X208.23 Y65.496
N17825 X168.35 Y39.504 Z-2.928
N17830 X168.243 Y39.437
N17835 X167.902 Y39.235
N17840 X167.791 Y39.172 Z-2.929
N17845 X167.678 Y39.114
N17850 X167.327 Y38.944
N17855 X167.212 Y38.892
N17860 X167.094 Y38.844
N17865 X166.735 Y38.706 Z-2.93
N17870 X166.616 Y38.663
N17875 X166.494 Y38.625
N17880 X166.129 Y38.519
N17885 X166.006 Y38.487
N17890 X165.881 Y38.459
N17895 X165.511 Y38.386 Z-2.931
N17900 X165.387 Y38.363
N17905 X165.261 Y38.347
N17910 X164.889 Y38.305
N17915 X164.763 Y38.293
N17920 X164.636 Y38.287 Z-2.932
N17925 X164.263 Y38.277
N17930 X164.137 Y38.276
N17935 X164.01 Y38.281
N17940 X163.638 Y38.302
N17945 X163.512 Y38.312
N17950 X163.387 Y38.327 Z-2.933
N17955 X163.019 Y38.379
N17960 X162.894 Y38.4
N17965 X162.77 Y38.425
N17970 X162.406 Y38.509
N17975 X162.283 Y38.54 Z-2.934
N17980 X162.161 Y38.576
N17985 X161.805 Y38.69
N17990 X161.685 Y38.732
N17995 X161.567 Y38.778
N18000 X161.219 Y38.923 Z-2.935
N18005 X161.102 Y38.974
N18010 X160.988 Y39.031
N18015 X160.651 Y39.206
N18020 X160.54 Y39.267
N18025 X160.432 Y39.333
N18030 X160.107 Y39.538 Z-2.936
N18035 X160.001 Y39.608
N18040 X159.898 Y39.683
N18045 X159.587 Y39.918
N18050 X159.488 Y39.997
N18055 X159.392 Y40.08
N18060 X159.097 Y40.346 Z-2.937
N18065 X159.003 Y40.435
N18070 X123.474 Y75.332 Z-2.981
N18075 X123.386 Y75.421
N18080 X123.107 Y75.719
N18085 X123.019 Y75.818
N18090 X122.935 Y75.92
N18095 X122.688 Y76.235 Z-2.982
N18100 X122.609 Y76.341
N18105 X122.535 Y76.45
N18110 X122.32 Y76.78
N18115 X122.251 Y76.892
N18120 X122.187 Y77.007 Z-2.983
N18125 X122.004 Y77.35
N18130 X121.946 Y77.464
N18135 X121.894 Y77.579
N18140 X121.742 Y77.935
N18145 X121.694 Y78.055 Z-2.984
N18150 X121.65 Y78.177
N18155 X121.53 Y78.541
N18160 X121.492 Y78.668
N18165 X121.459 Y78.796
N18170 X121.372 Y79.168 Z-2.985
N18175 X121.345 Y79.296
N18180 X121.323 Y79.426
N18185 X121.269 Y79.803
N18190 X121.254 Y79.929
N18195 X121.244 Y80.055
N18200 X121.222 Y80.436 Z-2.986
N18205 X121.217 Y80.565
N18210 X121.218 Y80.695
N18215 X121.229 Y81.077
N18220 X121.236 Y81.206
N18225 X121.248 Y81.335 Z-2.987
N18230 X121.292 Y81.716
N18235 X121.31 Y81.847
N18240 X121.334 Y81.977
N18245 X121.412 Y82.356
N18250 X121.44 Y82.481 Z-2.988
N18255 X121.474 Y82.604
N18260 X121.585 Y82.978
N18265 X121.625 Y83.103
N18270 X121.671 Y83.226
N18275 X121.816 Y83.593 Z-2.989
N18280 X121.867 Y83.713
N18285 X121.922 Y83.832
N18290 X122.101 Y84.19
N18295 X122.164 Y84.307
N18300 X122.231 Y84.422
N18305 X122.445 Y84.77 Z-2.99
N18310 X122.512 Y84.874
N18315 X149.433 Y124.787 Z-3.032
N18320 X149.801 Y125.372 Z-3.033
N18325 X150.108 Y125.932
N18330 X150.377 Y126.508 Z-3.034
N18335 X150.611 Y127.097
N18340 X150.807 Y127.697 Z-3.035
N18345 X150.966 Y128.307 Z-3.036
N18350 X151.088 Y128.925
N18355 X151.172 Y129.548 Z-3.037
N18360 X151.219 Y130.177
N18365 X151.227 Y130.804 Z-3.038
N18370 X151.197 Y131.434
N18375 X151.129 Y132.062 Z-3.039
N18380 X151.022 Y132.685
N18385 X150.876 Y133.305 Z-3.04
N18390 X150.692 Y133.917 Z-3.041
N18395 X150.451 Y134.564
N18400 X133.61 Y175.996 Z-3.08
